!!!COM: Scriabin, Alexander
!!!OTL@@FR: Allegro appassionato
!!!OPS: 4
!!!ODT: 1888–1892
!!!AGN: Concert work
**kern	**kern	**dynam
*staff2	*staff1	*staff1/2
*Ipiano	*Ipiano	*
*clefF4	*clefG2	*
*k[b-e-a-d-g-c-]	*k[b-e-a-d-g-c-]	*
*e-:	*e-:	*
*M3/4	*M3/4	*
=1	=1	=1
*^	*^	*
12EE-L	4EE-	12raa	12rc	.
12E-	.	12B-L 12f	6B-	.
12BB-J	.	12G-J 12e- 12g-	.	.
12GG-L	4GG-	12raa	12rc	.
12G-	.	12e-L 12an	6e-	.
12E-J	.	12B-J 12e- 12g- 12b-	.	.
12BB-L	4BB-	12raa	12rc	.
12B-	.	12g-L 12ddn	6g-	.
12G-J	.	12e-J 12b- 12ee-	.	.
=2	=2	=2	=2	=2
12C-L	8.C-L	12raa	12rc	.
12c-	.	12g-L 12ddn	6g-	.
12G-J	.	12e-J 12an 12ee-	.	.
.	16GG-Jk	.	.	.
12GG-L	4GG-	12raa	12rc	.
12G-	.	12e-L 12a-X	6e-	.
12E-J	.	12AnJ 12g- 12an	.	.
12GG-L	4rEE	12raa	12rc	.
12G-	.	12e-L 12a-X	6e-	.
12E-J	.	12AnJ 12g- 12an	.	.
=3	=3	=3	=3	=3
12BB-L	8.BB-L	12raa	12rc	.
12B-	.	12g-L 12ddn	6g-	.
12G-J	.	12e-J 12b- 12ee-	.	.
.	16GG-Jk	.	.	.
12GG-L	4GG-	12raa	12rc	.
12G-	.	12e-L 12an	6e-	.
12E-J	.	12B-J 12g- 12b-	.	.
12GG-L	4rEE	12raa	12rc	.
12G-	.	12e-L 12a	6e-	.
12E-J	.	12B-J 12g- 12b-	.	.
=4	=4	=4	=4	=4
12AAnL	8.AAL	12raa	12rc	.
12c-	.	12g-L 12ddn	6g-	.
12G-J	.	12e-J 12cc- 12ee-	.	.
.	16GG-Jk	.	.	.
12GG-L	4GG-	12raa	12rc	.
12An	.	12e-L 12b-	6e-	.
12E-J	.	12c-J 12g- 12cc-	.	.
12GG-L	4rEE	12raa	12rc	.
12A	.	12e-L 12b-	6e-	.
12E-J	.	12c-J 12g- 12cc-	.	.
=5	=5	=5	=5	=5
12BB-L	4BB-	12raa	12rc	.
12B-	.	12g-L 12ddn	6g-	.
12G-J	.	12e-J 12b- 12ee-	.	.
12GG-L	4GG-	12raa	12rc	.
12G-	.	12e-L 12an	6e-	.
12E-J	.	12B-J 12g- 12b-	.	.
12EE-L	4EE-	12raa	12rc	.
12E-	.	12B-L 12f	6B-	.
12BB-J	.	12G-J 12e- 12g-	.	.
=6	=6	=6	=6	=6
12EE-L	8.EE-L	12raa	12rc	.
12E-	.	12AnL 12f	6A	.
12C-J	.	12G-J 12e- 12g-	.	.
.	16CC-Jk	.	.	.
12CC-L	4CC-	12raa	12rc	.
12C-	.	12G-L 12dn	6G-	.
12GG-J	.	12E-J 12An 12e-	.	.
12CC-L	4rEE	12raa	12rc	.
12C-	.	12G-L 12d	6G-	.
12GG-J	.	12E-J 12A 12e-	.	.
=7	=7	=7	=7	=7
12EE-L	8.EE-L	12raa	12rc	.
12E-	.	12B-L 12f	6B-	.
12BB-J	.	12G-J 12e- 12g-	.	.
.	16BBB-Jk	.	.	.
12BBB-L	4BBB-	12raa	12rc	.
12BB-	.	12G-L 12dn	6G-	.
12GG-J	.	12E-J 12B- 12e-	.	.
12BBB-L	4rEE	12raa	12rc	.
12BB-	.	12G-L 12d	6G-	.
12GG-J	.	12E-J 12B- 12e-	.	.
=8	=8	=8	=8	=8
12EE-L	8.EE-L	12raa	12rc	.
12E-	.	12c-L 12f	6c-	.
12AA-J	.	12G-J 12e- 12g-	.	.
.	16AAA-Jk	.	.	.
12AAA-L	4AAA-	12raa	12rc	.
12C-	.	12G-L 12dn	6G-	.
12EE-J	.	12E-J 12c- 12e-	.	.
12AAA-L	4AAA-	12raa	12rc	.
12C-	.	12FL 12d-X	6F	.
12EE-J	.	12DnJ 12c- 12dn	.	.
=9	=9	=9	=9	=9
*	*^	*	*	*
12GGG-L	4GGG-	4r	12raa	12rc	.
12BB-	.	.	12B-L 12dn	6B-	.
12EE-J	.	.	12E-J 12e-	.	.
12AAA-L	4AAA-	4r	12raa	12rc	.
12C-	.	.	12c-L 12f-X	6c-	.
12EE-J	.	.	12FJ 12e- 12fn	.	.
12BBB-L	4BBB-	12r	12raa	12rc	.
12Dn	.	6D\	12dnL 12f	6d	.
12GG-J	.	.	12G-J 12B- 12g-	.	.
*	*v	*v	*	*	*
=10	=10	=10	=10	=10
12CC-L	8.CC-L	12raa	12rc	.
12E-	.	12e-L 12f	6e-	.
12GG-J	.	12G-J 12c- 12g-	.	.
.	16FFFJk	.	.	.
12FFFL	2FFF	12raa	12rc	.
12E-	.	12c-L 12gn	6c-	.
12C-J	.	12A-J 12e- 12a-	.	.
12FFL	.	12raa	12rc	.
12A-	.	12e-L 12b-	6e-	.
12E-J	.	12c-J 12a- 12cc-	.	.
=11	=11	=11	=11	=11
12FFL	4FF	12raa	12rc	.
12A-	.	12ddnL	[6cc-	.
12E-J	.	12e-J 12ee-	.	.
12GG-L	4GG-	12raa	12cc-]	.
12B-	.	12b-L 12dd	[6b-	.
12E-J	.	12e-J 12ee-	.	.
12AA-L	4AA-	12raa	12b-]	.
12c-	.	12a-L 12dd	[6a-	.
12E-J	.	12e-J 12ee-	.	.
=12	=12	=12	=12	=12
12AAnL	2.AA	12raa	12a-]	.
12c-	.	12g-L 12ddn	6g-	.
12E-J	.	12e-J 12cc- 12ee-	.	.
12AAL	.	12raa	12rc	.
12c-	.	12fL	6cc-	.
12E-J	.	12g-J 12ff	.	.
12AAL	.	12raa	4rc	.
12c-	.	12g-L 12dd	.	.
12E-J	.	12e-J 12cc- 12ee-	.	.
=13	=13	=13	=13	=13
12BB-L	4BB-	12raa	12rc	.
12B-	.	12a-L 12dd-	6a-	.
12FJ	.	12dnJ 12ddn	.	.
12BB-L	4BB-	12raa	12rc	.
12c-	.	12anL 12dd	6a	.
12G-J	.	12e-J 12ee-	.	.
12G-L	4G-	12raa	12rc	.
12g-	.	12ee-L 12bb-	6ee-	.
12c-J	.	12anJ 12ccc-	.	.
=14	=14	=14	=14	=14
12G-L	4G-	12raa	12rc	.
12g-	.	12ee-L 12bb-	6ee-	.
12c-J	.	12anJ 12ccc-	.	.
12FL	4F	12raa	12rc	.
12f	.	12ddnL 12aan	6dd	.
12B-J	.	12a-XJ 12bb-	.	.
12FL	4F	12raa	12rc	.
12B-	.	12a-L 12dd-X	6a-	.
12FJ	.	12dnJ 12ddn	.	.
=15	=15	=15	=15	=15
12FL	4F	12raa	12rc	.
12B-	.	12g#XL 12cc#X	6g#	.
12FJ	.	12dnJ 12ddn	.	.
12EnL	4E	12raa	12rc	.
12An	.	12b#XL	6an	.
12EJ	.	12c#XJ 12cc#	.	.
12E-XL	4E-	12raa	12rc	.
12A-X	.	12f#XL 12bn	6f#	.
12E-J	.	12cnJ 12ccn	.	.
=16	=16	=16	=16	=16
12DnL	4D	12raa	12rc	.
12Gn	.	12a#XL	6gn	.
12DJ	.	12BnJ 12bn	.	.
12DL	4D	12raa	12rc	.
12A-	.	12fL 12b-X	6f	.
12DJ	.	12c-XJ 12cc-X	.	.
12DL	4D	12raa	12rc	.
12A-	.	12fL 12an	6f	.
12DJ	.	12B-XJ 12b-	.	.
=17	=17	=17	=17	=17
12EE-L	4EE-	12raa	12rc	.
12E-	.	12B-L 12f	6B-	.
12BB-J	.	12G-J 12e- 12g-	.	.
12GG-L	4GG-	12raa	12rc	.
12G-	.	12e-L 12an	6e-	.
12E-J	.	12B-J 12g- 12b-	.	.
12BB-L	4BB-	12raa	12rc	.
12B-	.	12g-L 12ddn	6g-	.
12G-J	.	12e-J 12b- 12ee-	.	.
=18	=18	=18	=18	=18
12C-L	8.C-L	12raa	12rc	.
12c-	.	12g-L 12ddn	6g-	.
12G-J	.	12e-J 12an 12ee-	.	.
.	16GG-Jk	.	.	.
12GG-L	2GG-	12raa	12rc	.
12G-	.	12e-L 12a-X	6e-	.
12E-J	.	12AnJ 12g- 12an	.	.
12GG-L	.	12raa	12rc	.
12G-	.	12e-L 12a-X	6e-	.
12E-J	.	12AnJ 12g- 12an	.	.
=19	=19	=19	=19	=19
12BB-L	8.BB-L	12raa	12rc	.
12B-	.	12g-L 12ddn	6g-	.
12G-J	.	12e-J 12b- 12ee-	.	.
.	16GG-Jk	.	.	.
12GG-L	2GG-	12raa	12rc	.
12G-	.	12e-L 12an	6e-	.
12E-J	.	12B-J 12g- 12b-	.	.
12GG-L	.	12raa	12rc	.
12G-	.	12e-L 12a	6e-	.
12E-J	.	12B-J 12g- 12b-	.	.
=20	=20	=20	=20	=20
12AAnL	8.AAL	12raa	12rc	.
12c-	.	12g-L 12ddn	6g-	.
12G-J	.	12e-J 12cc- 12ee-	.	.
.	16GG-Jk	.	.	.
12GG-L	2GG-	12raa	12rc	.
12G-	.	12e-L 12b-	6e-	.
12E-J	.	12c-J 12g- 12cc-	.	.
12GG-L	.	12raa	12rc	.
12G-	.	12e-L 12b-	6e-	.
12E-J	.	12c-J 12g- 12cc-	.	.
=21	=21	=21	=21	=21
12BB-L	4BB-	12raa	12rc	.
12B-	.	12g-L 12ddn	6g-	.
12G-J	.	12e-J 12b- 12ee-	.	.
12GG-L	4GG-	12raa	12rc	.
12G-	.	12e-L 12an	6e-	.
12E-J	.	12B-J 12g- 12b-	.	.
12BB-L	4BB-	12raa	12rc	.
12B-	.	12g-L 12ddn	6g-	.
12G-J	.	12e-J 12b- 12ee-	.	.
=22	=22	=22	=22	=22
12C-L	8.C-L	12raa	12rc	.
12c-	.	12g-L 12ddn	6g-	.
12G-J	.	12e-J 12an 12ee-	.	.
.	16CnJk	.	.	.
12CL	2C	12raa	12rc	.
12cn	.	12e-L 12gn	[6e-	.
12G-J	.	12c-J 12g-X 12a-X	.	.
12CL	.	12raa	12e-L]	.
12e-	.	[6a-	12a-	.
12A-J	.	.	12g-J	.
=23	=23	=23	=23	=23
12D-L	8.D-L	12a-L]	[4f	.
12d-	.	12dd- 12ff	.	.
12A-J	.	12cc-J	.	.
.	16DnJk	.	.	.
12DL	2D	12raa	12f]	.
12dn	.	12fL 12an	6f	.
12A-J	.	12B-J 12a-X 12b-	.	.
12DL	.	12raa	12fL	.
12f	.	[6b-	12b-	.
12B-J	.	.	12a-J	.
=24	=24	=24	=24	=24
12E-L	4E-	12g-L 12b-]	6g-	.
12e-	.	12gg-	.	.
12B-J	.	12ee-J	12ee-	.
12EnL	2E	12raa	6dd-	.
12g-	.	12aanL	.	.
12d-J	.	12b-J 12gg- 12bb-	12b-	.
12EL	.	12raa	12rc	.
12g-	.	12dd-L 12aa	6dd-	.
12d-J	.	12b-J 12gg- 12bb-	.	.
=25	=25	=25	=25	=25
12FL	4F	12raa	12rc	.
12f	.	12dd-L 12aan	6dd-	.
12d-J	.	12b-J 12ff 12bb-	.	.
12D-L	4D-	12raa	12rc	.
12d-	.	12b-L 12een	6b-	.
12B-J	.	12fJ 12dd- 12ff	.	.
12BB-L	4BB-	12raa	12rc	.
12B-	.	12fL 12ccn	6f	.
12FJ	.	12d-J 12b- 12dd-	.	.
=26	=26	=26	=26	=26
12D-L	8.D-L	12fL	4f	.
12d-	.	12dd- 12ff	.	.
12A-J	.	12cc-J	.	.
.	16AA-Jk	.	.	.
12AA-L	2AA-	12raa	12rc	.
12A-	.	12fL 12b-	6f	.
12D-J	.	12c-J 12a- 12cc-	.	.
12AA-L	.	12raa	4rc	.
12A-	.	12fL 12b-	.	.
12D-J	.	12BnJ 12a- 12bn	.	.
=27	=27	=27	=27	=27
12CnL	4C	12raa	12rc	.
12cn	.	12a-L 12een	6a-	.
12A-J	.	12fJ 12ccn 12ff	.	.
12AA-L	4AA-	12raa	12rc	.
12A-	.	12fL 12bn	6f	.
12FJ	.	12cnJ 12a- 12cc	.	.
12FFL	4FF	12raa	12rc	.
12F	.	12cL 12gn	6c	.
12CJ	.	12A-J 12f 12a-	.	.
=28	=28	=28	=28	=28
12AA-L	8.AA-L	12cnL	4c	.
12A-	.	12a- 12ccn	.	.
12E-J	.	12g-J	.	.
.	16EE-Jk	.	.	.
12EE-L	2EE-	12raa	12rc	.
12E-	.	12cL 12f	6c	.
12AA-J	.	12G-J 12e- 12g-	.	.
12EE-L	.	12raa	12rc	.
12E-	.	12cL 12f	6c	.
12AA-J	.	12G-J 12e- 12g-	.	.
=29	=29	=29	=29	=29
12GG-L	8.GG-L	12raa	12rc	.
12G-	.	12d-L 12a-	6d-	.
12D-J	.	12B--J 12g- 12b--	.	.
.	16DD-Jk	.	.	.
12DD-L	2DD-	12raa	12rc	.
12D-	.	12B--L 12f	6B--	.
12BB--J	.	12G-J 12d- 12g-	.	.
12DD-L	.	12raa	12rc	.
12D-	.	12B--L 12f	6B--	.
12BB--J	.	12G-J 12d- 12g-	.	.
=30	=30	=30	=30	=30
12CCnL	4CC	12raa	12rc	.
12E-	.	12AnL 12f	6A	.
12AAnJ	.	12G-J 12e- 12g-	.	.
12CCL	4rEE	12raa	12rc	.
12G-	.	12e-L 12a-X	6e-	.
12AAJ	.	12AnJ 12g- 12an	.	.
12CCL	4rEE	12raa	12rc	.
12G-	.	12g-L 12ddn	6g-	.
12AAJ	.	12e-J 12a 12ee-	.	.
=31	=31	=31	=31	=31
12CnL	4C	12raa	12rc	.
12e-	.	12anL 12ff	6a	.
12AnJ	.	12g-J 12ee- 12gg-	.	.
12CL	4rEE	12raa	12rc	.
12g-	.	12ee-L 12aa-X	6ee-	.
12AJ	.	12anJ 12gg- 12aan	.	.
12CL	4rEE	12raa	12rc	.
12g-	.	12gg-L 12dddn	6gg-	.
12AJ	.	12ee-J 12aa 12eee-	.	.
*v	*v	*	*	*
=32	=32	=32	=32
[8qD-/	.	.	.
4D-] 4B- 4d- 4g- 4b-	4dd- 4gg- 4ddd-	4rc	.
*clefG2	*	*	*
4cn	12raa	12rc	.
.	12b-L 12ff	6b-	.
.	12g-J 12gg-	.	.
4d-	12raa	12rc	.
.	12b-L 12ff	6b-	.
.	12g-J 12gg-	.	.
=33	=33	=33	=33
4f	12raa	12rc	.
.	12aanL	6gg-	.
.	12b-J 12bb-	.	.
4e-	12raa	12rc	.
.	12aaL	6gg-	.
.	12b-J 12bb-	.	.
4d-	12raa	4rc	.
.	12gg-L 12ddd-	.	.
.	12b-J	.	.
*	*v	*v	*
*clefF4	*	*
=34	=34	=34
*^	*	*
[2.D- [2.A- [2.g-	2.c-	4ddd-	.
.	.	4eee-	.
.	.	4ddd-	.
=35	=35	=35	=35
2.D-_ 2.A-_ 2.g-_	2.c-	16%3ccc-	.
.	.	16%3aa-	.
.	.	16%3gg-	.
.	.	16%3ee-	.
*v	*v	*	*
=36	=36	=36
*M6/8	*M6/8	*
*^	*	*
4D-] 4A-] 4g-]	4c-	8dd-L	.
.	.	8ccn	.
8rc	8rEE	8dd-J	.
4rc	4rEE	8ddnL	.
.	.	8ee-	.
8rc	8rEE	8ff-XJ	.
*clefG2	*	*	*
=37	=37	=37	=37
*	*	*^	*
16%3b-L	4.d-	8ffnL	2.cc-	.
.	.	8ee-	.	.
16%3a-J	.	.	.	.
.	.	8ffJ	.	.
4.g-	8e-L	8gg-L	.	.
.	8e--	8aa-	.	.
.	8A-J	8ccc-J	.	.
=38	=38	=38	=38	=38
8f	8d-	4.bb-	2.cc- 2.dd-	.
8D-L	8rc	.	.	.
8A-J	8rc	.	.	.
8e-L	4.rc	4.aa-	.	.
8g-	.	.	.	.
8fJ	.	.	.	.
=39	=39	=39	=39	=39
16%3b-L	4.d-	8ffL	2.cc-	.
.	.	8ee-	.	.
16%3a-J	.	.	.	.
.	.	8ffJ	.	.
4.g-	8e-L	32%3gg-L	.	.
.	.	32%3aa-	.	.
.	8e--	.	.	.
.	.	32%3ddd-	.	.
.	8A-J	.	.	.
.	.	32%3ccc-J	.	.
=40	=40	=40	=40	=40
8f	8d-	4bb-	4.cc- 4.dd-	.
8D-L	8rc	.	.	.
8A-J	8rc	8aa-	.	.
8e-L	4.rc	4.dd-	4.cc-	.
8g-	.	.	.	.
8fJ	.	.	.	.
*clefF4	*	*	*	*
=41	=41	=41	=41	=41
4.d-	2.G-	8dd-L	2.b-	.
.	.	8ccn	.	.
.	.	8dd-J	.	.
[4.cn	.	8ddnL	.	.
.	.	8ee-	.	.
.	.	8eenJ	.	.
=42	=42	=42	=42	=42
*	*	*	*^	*
8cL]	2.F	[4.ff	4rc	2.an\	.
8Bn	.	.	.	.	.
8cnJ	.	.	8een	.	.
8g-L	.	4.ff_	8ee-XL	.	.
8f	.	.	8dd-	.	.
8e-J	.	.	8ccnJ	.	.
*	*	*	*v	*v	*
=43	=43	=43	=43	=43
4.d-	4.B-	8ffL]	4.b-	.
.	.	8een	.	.
.	.	8ffJ	.	.
4.e-	4B--	8gg-L	4.dd-	.
.	.	8ggn	.	.
.	[8A-	[8aa-J	.	.
=44	=44	=44	=44	=44
*	*	*	*^	*
4a-	4.A-]	4.aa-_	8rc	4.ccn\	.
.	.	.	8ffL	.	.
[8g-	.	.	8ee-J	.	.
8g-L]	4.d-	4aa-]	8ee-	4.cc-X\	.
8f	.	.	4dd-	.	.
8g-J	.	8gg-	.	.	.
*	*	*v	*v	*v	*
*clefG2	*	*	*
=45	=45	=45	=45
*	*	*^	*
16%3b-L	4.d-	8ffL	2.cc-	.
.	.	8ee-	.	.
16%3a-J	.	.	.	.
.	.	8ffJ	.	.
4.g-	8e-L	8gg-L	.	.
.	8e--	8aa-	.	.
.	8A-J	8ccc-J	.	.
=46	=46	=46	=46	=46
8f	8d-	4.bb-	2.cc- 2.dd-	.
8D-L	8rc	.	.	.
8A-J	8rc	.	.	.
8e-L	4.rc	4.aa-	.	.
8g-	.	.	.	.
8fJ	.	.	.	.
=47	=47	=47	=47	=47
16%3b-L	4.d-	8ffL	2.cc-	.
.	.	8ee-	.	.
16%3a-J	.	.	.	.
.	.	8ffJ	.	.
4.g-	8e-L	40%3gg-L	.	.
.	.	40%3aa-	.	.
.	8e--	.	.	.
.	.	40%3bb-	.	.
.	.	40%3ddd-	.	.
.	8A-J	.	.	.
.	.	40%3ccc-J	.	.
=48	=48	=48	=48	=48
8f	8d-	4bb-	4.cc- 4.dd-	.
8D-L	8rc	.	.	.
8A-J	8rc	8aa-	.	.
8e-L	4.rc	4.dd-	4.cc-	.
8g-	.	.	.	.
8fJ	.	.	.	.
*clefF4	*	*	*	*
=49	=49	=49	=49	=49
16%3d-L	4.G-	8dd-L	4.b-	.
.	.	8ccn	.	.
16%3d-J	.	.	.	.
.	.	8dd-J	.	.
[4.d-	16%3rEE	8ff-XL	4.b--	.
.	.	8ee-	.	.
.	16%3Gn 16%3en	.	.	.
.	.	8dd-J	.	.
*v	*v	*	*	*
=50	=50	=50	=50
8A- 8d-] 8f	[4.dd-	4.a-	.
8AA-L	.	.	.
8F	.	.	.
8cn	4.dd-]	4rc	.
8d-	.	.	.
8a-J	.	8rc	.
=51	=51	=51	=51
4.A- [4.d- 4.f	40%3dd-L	4.a-	.
.	40%3ee-	.	.
.	40%3dd-	.	.
.	40%3ccn	.	.
.	40%3dd-J	.	.
4.B-- 4.d-_ [4.f-X	8ff-XL	4.a--	.
.	8ee-	.	.
.	8dd-J	.	.
=52	=52	=52	=52
8B-X 8d-] 8f-]	8dd-L	4g-	.
8BB-L	8gg-	.	.
8G-J	8ffJ	8rc	.
8g-L	8ff-XL	4.rc	.
8G-	8ccn	.	.
8f-XJ	8dd-J	.	.
=53	=53	=53	=53
*^	*	*	*
2.G- 2.c-	4.C-	8ee-L	2.e- 2.cc-	.
.	.	8ddn	.	.
.	.	8ee-J	.	.
.	4.BB--	8ffL	.	.
.	.	8gg-	.	.
.	.	8ggnJ	.	.
=54	=54	=54	=54	=54
8rc	[4.AA-	4.aa-	8rc	.
8cnL	.	.	[8f-XL	.
8G-J	.	.	8f-J] 8b-	.
8DnL	4.AA-]	4.gg-	8rc	.
8E-	.	.	[8e-L	.
8g-J	.	.	8e-J] 8ccn	.
=55	=55	=55	=55	=55
2.A- 2.d-	4.D-	8ff-XL	2.f-X 2.dd-	.
.	.	8ee-	.	.
.	.	8ff-J	.	.
.	4.C-X	8gg-L	.	.
.	.	8ggn	.	.
.	.	8aa-J	.	.
=56	=56	=56	=56	=56
8rc	[4.BB-	4.bb-	8rc	.
8dnL	.	.	[8g-L	.
8A-J	.	.	8g-J] 8ccn	.
8EnL	4.BB-]	4.aa-	8rc	.
8F	.	.	[8fL	.
8a-J	.	.	8fJ] 8ddn	.
*v	*v	*	*	*
=57	=57	=57	=57
32%3E-L 32%3B- 32%3e-	8gg-L	4g- 4ee-	.
32%3B-	.	.	.
.	8ff	.	.
32%3f	.	.	.
.	8ee-J	8rc	.
32%3g-J	.	.	.
8b-	8ddnL	4.rc	.
8r	8ee-	.	.
8r	8ffJ	.	.
=58	=58	=58	=58
8E--L	8gg-L	4.ccn	.
8An	8ff	.	.
8g-J	8gg-J	.	.
8ccnL	8aa-L	4.gg-	.
8cnJ	8aan	.	.
8D- 8d-	[8bb-J	.	.
=59	=59	=59	=59
4B- 4g-	8bb-L]	4dd-	.
.	8aan	.	.
8r	8bb-J	8d-	.
8b-L 8gg-	8ccc-L	4.bb-	.
8d-	8ddd-	.	.
8D-J	[8fff-XJ	.	.
=60	=60	=60	=60
8B-L	8fff-L]	4.ff-X	.
8gn	8eee-	.	.
8d-J	8ddd-J	.	.
8gL 8ff	4ccc-	4.dd-	.
8d-	.	.	.
8D-J	8bb-	.	.
=61	=61	=61	=61
4c- 4g-	8aa-L	4.ee--	.
.	8ggn	.	.
8e--	8aa-J	.	.
8cc-L 8ggn	8bb-L	4.ee--	.
8e--	8ccc-	.	.
8D-J	8eee--J	.	.
=62	=62	=62	=62
8A-L	8ddd-L	4.cc-	.
8f	8ccc-	.	.
8c-J	8bb-J	.	.
4f 4cc-	4bb-	4.dd-	.
8D-	8aa-	.	.
=63	=63	=63	=63
8B-L	8gg-L	4.dd-	.
8dd-	8ff	.	.
8d-J	8gg-J	.	.
8g-L	8aa-L	4.rc	.
8dd-	8bb-	.	.
8D-J	8gg-J	.	.
*	*v	*v	*
=64	=64	=64
8B--L	8ffL	.
8g-	8ee-	.
8cnJ	8ddnJ	.
8b--L	8ee-L	.
8ee-	8.aa-	.
8DD-J 8D-	.	.
.	16gg-Jk	.
=65	=65	=65
8A-L	4.gg-	.
8g-	.	.
8c-J	.	.
8g-L	8a-L	.
8cc-J	8ff	.
8r	8ee-J	.
=66	=66	=66
*	*^	*
4r	8dd-L	4rc	.
.	8e-	.	.
8r	8cc-J	8rc	.
4.D-	8b-L	4.c- 4.f	.
.	8a-	.	.
.	8b-J	.	.
*	*v	*v	*
=67	=67	=67
*^	*	*
8rc	8GG-L 8G-	4.B- 4.g-	.
[4d-	8F	.	.
.	8E-J	.	.
4.d-]	4.D-	4a-	.
.	.	8B- 8g- 8b-	.
=68	=68	=68	=68
8rc	8GG-L 8G-	4.a-	.
[4d-	8F	.	.
.	8E-J	.	.
4.d-]	4.D-	4B- 4g- 4b-	.
.	.	8dd-	.
*v	*v	*	*
=69	=69	=69
16GG-LL	8c-L 8a-	.
16D-	.	.
16c-	8g-	.
16A-	.	.
16g-	8a-J	.
16cc-JJ	.	.
8c-	8ee-L	.
8r	8ff	.
8r	8gg-J	.
=70	=70	=70
2.r	40%3bb-L	.
.	40%3aa-	.
.	40%3ee-	.
.	40%3a-	.
.	40%3b-J	.
.	4dd-	.
.	8cc-	.
=71	=71	=71
*^	*	*
8rc	8GG-L 8G-	4.c- 4.a-	.
[4d-	8F	.	.
.	8E-J	.	.
4.d-]	4.D-	4b-	.
.	.	8c- 8f 8cc-	.
=72	=72	=72	=72
*	*	*^	*
8rc	8GG-L 8G-	4b-	4rc	.
[4d-	8F	.	.	.
.	8E-J	[8c- [8g-	8rc	.
4.d-]	4.D-	8c-L] 8g-]	8rc	.
.	.	8a-	4c- 4f	.
.	.	8b-J	.	.
*v	*v	*	*	*
=73	=73	=73	=73
16GG-LL	8dd-L	8B- 8g-	.
16D-	.	.	.
16B-	8ccn	8rc	.
16g-	.	.	.
16d-	8dd-J	8rc	.
16B-JJ	.	.	.
8dd-	8gg-	4rc	.
8r	8aanL	.	.
8r	8bb-J	8rc	.
=74	=74	=74	=74
*^	*	*	*
4rc	4rEE	40%3eee-L	4.rc	.
.	.	40%3ddd-	.	.
.	.	40%3gg-	.	.
.	.	40%3b-	.	.
8rc	8rEE	.	.	.
.	.	40%3cc-J	.	.
4B-	4.D-	8dd-L	4.f	.
.	.	8b-	.	.
8c-	.	8a-J	.	.
*	*	*v	*v	*
=75	=75	=75	=75
8rc	8GG-L 8G-	4.B- 4.g-	.
[4d-	8F	.	.
.	24E-L	.	.
.	24F	.	.
.	24E-JJ	.	.
4.d-]	4.D-	4a-	.
.	.	8B- 8g- 8b-	.
=76	=76	=76	=76
8rc	8GG-L 8G-	4.a-	.
[4d-	8F	.	.
.	24E-L	.	.
.	24F	.	.
.	24E-JJ	.	.
4.d-]	4.D-	4B- 4g- 4b-	.
.	.	8dd-	.
*v	*v	*	*
=77	=77	=77
16GG-LL	8c-L 8a-	.
16D-	.	.
16c-	8g-	.
16A-	.	.
16g-	8a-J	.
16cc-JJ	.	.
8c-	8ee-L	.
8r	8ff	.
8r	8gg-J	.
=78	=78	=78
2.r	40%3bb-L	.
.	40%3aa-	.
.	40%3ee-	.
.	40%3a-	.
.	40%3b-J	.
.	4dd-	.
.	8cc-	.
=79	=79	=79
*^	*^	*
8rc	8GG-L 8G-	4.c- 4.a-	4rc	.
[4d-	24FL	.	.	.
.	24G-	.	.	.
.	24F	.	.	.
.	24E-	.	8rc	.
.	24F	.	.	.
.	24E-JJ	.	.	.
4.d-]	24D-LL	8b-L	8rc	.
.	24E-	.	.	.
.	24D-	.	.	.
.	24E-	8dd-	4c- 4f	.
.	24D-	.	.	.
.	24E-	.	.	.
.	24D-	8cc-J	.	.
.	24E-	.	.	.
.	24D-JJ	.	.	.
=80	=80	=80	=80	=80
8rc	8GG-L 8G-	8b-L	8rc	.
[4d-	24FL	8a-	4c-	.
.	24G-	.	.	.
.	24F	.	.	.
.	24E-	8g-J	.	.
.	24F	.	.	.
.	24E-JJ	.	.	.
4.d-]	24D-LL	4a-	4.c- 4.f	.
.	24E-	.	.	.
.	24D-	.	.	.
.	24E-	.	.	.
.	24D-	.	.	.
.	24E-	.	.	.
.	24D-	8b-	.	.
.	24E-	.	.	.
.	24D-JJ	.	.	.
*v	*v	*	*	*
*	*v	*v	*
=81	=81	=81
*M3/4	*M3/4	*
*	*^	*
8GG-L	4B- 4g- 4dd-	4rc	.
8D-J	.	.	.
8B-L	12raa	12rc	.
.	12ffL	6dd-	.
8d-J	.	.	.
.	12g-J 12gg-	.	.
8g-L	12raa	12rc	.
.	12aanL	6gg-	.
8d-J	.	.	.
.	12b-J 12bb-	.	.
=82	=82	=82	=82
4B- 4dd-	12raa	12rc	.
.	12gg-L 12cccn	6gg-	.
.	12dd-J 12ddd-	.	.
12r	4ddd- 4dddd-	4rc	.
12fL	.	.	.
12e-J	.	.	.
12d-L	4raa	4rc	.
12c-	.	.	.
12B-J	.	.	.
=83	=83	=83	=83
*^	*	*	*
2.A-	12A-L	12raa	4rc	.
.	12D-	12c-L 12e-	.	.
.	12GG-J	12d-J 12f	.	.
.	8d-L	12raa	12rc	.
.	.	12gnL	6f	.
.	8D-J	.	.	.
.	.	12a-J	.	.
.	8d-L	12raa	12rc	.
.	.	12fL 12b-	6f	.
.	8D-J	.	.	.
.	.	12cc-J	.	.
=84	=84	=84	=84	=84
4B-	8B-L	12raa	12rc	.
.	.	12fL 12ccn	6f	.
.	8D-J	.	.	.
.	.	12dd-J	.	.
4c-	8c-XL	12raa	12rc	.
.	.	12fL 12ddn	6f	.
.	8D-J	.	.	.
.	.	12ee-J	.	.
4e-	8e-L	12raa	12rc	.
.	.	12fL 12b-	6f	.
.	8D-J	.	.	.
.	.	12cc-XJ	.	.
=85	=85	=85	=85	=85
4d-	12d-L	12raa	12rc	.
.	12D-	12d-L 12an	6d-	.
.	12GG-J	12g-J 12b-	.	.
4B-	12B-L	12dd-	12rc	.
.	12D-	12dd-L 12aan	6dd-	.
.	12GG-J	12gg-J 12bb-	.	.
4G-	12G-L	12b- 12ddd-	4rc	.
.	12D-	12raa	.	.
.	12GG-J	12raa	.	.
*	*	*v	*v	*
=86	=86	=86	=86
2.A-	12A-L	12r	.
.	12D-	12c-L 12gn	.
.	12GG-J	12fJ 12a-	.
.	12d-L	12dd-	.
.	12D-	12cc-L 12ggn	.
.	12d-J	12ffJ 12aa-	.
.	12D-L	12cc- 12ddd-	.
.	12d-	12r	.
.	12D-J	12r	.
=87	=87	=87	=87
*	*	*^	*
4A-	12D-L	12raa	4rc	.
.	12GG-	12c-L 12e-	.	.
.	12D-J	12d-J 12f	.	.
4Gn	12GL	12raa	12rc	.
.	12D-	12enL 12dd-	6e	.
.	12GJ	12b-J 12ee-X	.	.
4A-	12A-L	12raa	12rc	.
.	12D-	12fL 12dd-	6f	.
.	12A-J	12cc-J 12ee-	.	.
=88	=88	=88	=88	=88
4B-	12B-L	12raa	12rc	.
.	12D-	12fL 12dd-	6f	.
.	12B-J	12b-J 12ee-	.	.
4c-	12c-L	12raa	12rc	.
.	12D-	12fL 12dd-	6f	.
.	12c-J	12a-J 12ee-	.	.
8e-L	12e-L	12raa	4rc	.
.	12c-	12fL 12b-	.	.
8e--J	.	.	.	.
.	12D-J	12e--J 12a- 12cc-	.	.
=89	=89	=89	=89	=89
4d-	12d-L	12raa	12rc	.
.	12D-	12d-L 12an	6d-	.
.	12GG-J	12g-J 12b-	.	.
4B-	12B-L	12ccnL	4rc	.
.	12D-	12dd-	.	.
.	12GG-J	12gg-J	.	.
4G-	12G-L	12bb-L	4rc	.
.	12D-	12ccc-	.	.
.	12GG-J	12bb-J	.	.
=90	=90	=90	=90	=90
4A-	12A-L	12ddd-	12rc	.
.	12D-	12cc-L 12ggn	6cc-	.
.	12GG-J	12ffJ 12aa-	.	.
4d-	12d-L	12bb-L	4rc	.
.	12D-	12ccc- 12eee-	.	.
.	12GG-J	12ddd-J 12fff	.	.
4A-	12A-L	12fffL 12eeee-	4rc	.
.	12D-	12dddd-J	.	.
.	12d-J	12raa	.	.
=91	=91	=91	=91	=91
4G-	8G-L	12raa	12rc	.
.	.	12B-L 12f	6B-	.
.	8GG-J	.	.	.
.	.	12g-J	.	.
4F	8FL	12b-	12rc	.
.	.	12B-L 12f	6B-	.
.	8d-J	.	.	.
.	.	12g-J	.	.
4E-	8E-L	12dd-	4rc	.
.	.	12raa	.	.
.	8GG-J	.	.	.
.	.	12raa	.	.
=92	=92	=92	=92	=92
4D-	8D-L	12raa	12rc	.
.	.	12c-XL 12ccn	6c-X	.
.	8GG-J	.	.	.
.	.	12fJ 12dd-	.	.
4rc	12D-L	12ee-	4rc	.
.	12B-	12fL 12dd-	.	.
.	12c-J	12ee-J	.	.
4rc	8c-L 8f	6bb-	4dd-	.
.	8D-J	.	.	.
.	.	12aa-	.	.
*	*	*v	*v	*
=93	=93	=93	=93
4G-	8d-L	12r	.
.	.	12b-L 12ff	.
.	8GG-J	.	.
.	.	12gg-J	.
4F	8g-L	12bb-	.
.	.	12b-L 12ff	.
.	8B-J	.	.
.	.	12gg-J	.
4E-	8d-L	12ddd-	.
.	.	12r	.
.	8GG-J	.	.
.	.	12r	.
*v	*v	*	*
=94	=94	=94
*	*^	*
8D-L 8c- 8f	12raa	12rc	.
.	12cc-L 12cccn	6cc-	.
8GG-J	.	.	.
.	12ffJ 12ddd-	.	.
12D-L	12eee-	4rc	.
12c-	12ffL 12ddd-	.	.
[12fJ	12eee-J	.	.
8c-L 8f] 8dd-	6bbb-	4ddd-	.
8D-J	.	.	.
.	12aaa-	.	.
=95	=95	=95	=95
*^	*	*	*
12GG-L	4GG-	12raa	12rc	.
12G-	.	12d-L 12an	6d-	.
12D-J	.	12B-J 12g- 12b-	.	.
12BB-L	4BB-	12raa	12rc	.
12B-	.	12g-L 12ccn	6g-	.
12G-J	.	12d-J 12b- 12dd-	.	.
12D-L	4D-	12raa	12rc	.
12d-	.	12b-L 12ff	6b-	.
12B-J	.	12g-J 12dd- 12gg-	.	.
*clefG2	*	*	*	*
=96	=96	=96	=96	=96
12G-L	4G-	12raa	12rc	.
12g-	.	12dd-L 12aan	6dd-	.
12d-J	.	12b-J 12gg- 12bb-	.	.
12B-L	4B-	12raa	12rc	.
12b-	.	12gg-L 12cccn	6gg-	.
12g-J	.	12dd-J 12bb- 12ddd-	.	.
12d-L	4d-	12raa	12rc	.
12dd-	.	12bb-L 12fff	6bb-	.
12b-J	.	12gg-J 12ddd- 12ggg-	.	.
=97	=97	=97	=97	=97
12g-L	4g-	12raa	12rc	.
12gg-	.	12ddd-L 12aaan	6ddd-	.
12dd-J	.	12bb-J 12ggg- 12bbb-	.	.
12g-L	4g-	12raa	12rc	.
12gg-	.	12ddd-L 12aaa	6ddd-	.
12dd-J	.	12bb-J 12ggg- 12bbb-	.	.
12g-L	4g-	12raa	12rc	.
12gg-	.	12ddd-L 12aaa	6ddd-	.
12dd-J	.	12bb-J 12ggg- 12bbb-	.	.
=98	=98	=98	=98	=98
12g-L	4g-	12raa	12rc	.
12gg-	.	12ddd-L 12aaan	6ddd-	.
12dd-J	.	12bb-J 12ggg- 12bbb-	.	.
4raa	4rc	4raa	4rc	.
4raa	4rc	4raa	4rc	.
*v	*v	*	*	*
*	*v	*v	*
*clefF4	*	*
=99||	=99||	=99||
*k[b-e-a-d-g-]	*k[b-e-a-d-g-]	*
4GGG- 4GG-	2.r	.
4BBB- 4BB-	.	.
4DD- 4D-	.	.
=100	=100	=100
8.EE--L 8.E--	2.r	.
16BBB-Jk 16BB-	.	.
4BBB- 4BB-	.	.
4r	.	.
=101	=101	=101
*^	*^	*
12GG-L	4GG-	12raa	12rc	.
12G-	.	12d-L 12an	6d-	.
12D-J	.	12B-J 12g- 12b-	.	.
12BB-L	4BB-	12raa	12rc	.
12B-	.	12g-L 12ccn	6g-	.
12G-J	.	12d-J 12b- 12dd-	.	.
12D-L	4D-	12raa	12rc	.
12d-	.	12b-L 12ff	6b-	.
12B-J	.	12g-J 12dd- 12gg-	.	.
*v	*v	*	*	*
=102	=102	=102	=102
4G- 4d- 4g-	4b- 4dd- 4bb-	8ffL	.
.	.	8eenJ	.
4r	4raa	4rc	.
4r	4raa	4rc	.
*	*v	*v	*
=103	=103	=103
4FFF 4FF	2.r	.
4BBB- 4BB-	.	.
4FF 4F	.	.
=104	=104	=104
8.GG-L 8.G-	2.r	.
16DD-Jk 16D-	.	.
4DD- 4D-	.	.
4r	.	.
=105	=105	=105
4FFF 4FF	2.r	.
4AAAn 4AAn	.	.
4FF 4F	.	.
=106	=106	=106
8.GG-L 8.G-	2.r	.
16CCnJk 16Cn	.	.
4CC 4C	.	.
4FF 4F	.	.
=107	=107	=107
*^	*^	*
*	*	*	*^	*
12BBB-L	4BBB-	4b-	12rc	4r	.
12D-	.	.	12B-L 12c	.	.
12FFJ	.	.	12D-J 12d-	.	.
12DD-L	4DD-	4an	12rc	12r	.
12B-	.	.	12enL	6d-/	.
12FFJ	.	.	12FJ 12f	.	.
12FFL	4FF	4b-	12rc	12r	.
12d-	.	.	12eL	6B-/	.
12D-J	.	.	12FJ 12f	.	.
=108	=108	=108	=108	=108	=108
12GG-L	8.GG-L	4cc	12rc	12r	.
12d-	.	.	12anL	6g-/	.
12D-J	.	.	12B-J 12b-	.	.
.	16DD-Jk	.	.	.	.
12DD-L	2DD-	4dd-	12rc	12r	.
12d-	.	.	12aL	6g-/	.
12D-J	.	.	12B-J 12b-	.	.
12rc	.	4ff	12rc	12r	.
12d-L	.	.	12aL	6g-/	.
12D-J	.	.	12B-J 12b-	.	.
=109	=109	=109	=109	=109	=109
12CCL	4CC	2.ff	12rc	12r	.
12G-	.	.	12anL	6dn/	.
12BB-J	.	.	12B-J 12g- 12b-	.	.
12CL	4C	.	12rc	12r	.
12B-	.	.	12dd-XL	6g-/	.
12G-J	.	.	12dJ 12b- 12ddn	.	.
12CL	4C	.	12rc	12r	.
12g-	.	.	12aanL	6dd\	.
12B-J	.	.	12b-J 12gg- 12bb-	.	.
*clefG2	*	*	*	*	*
=110	=110	=110	=110	=110	=110
12cL	4c	2.ee-	12rc	4r	.
12b-	.	.	12eee-L	.	.
12g-J	.	.	12bb-J	.	.
12cL	4c	.	12rc	12r	.
12ee-	.	.	12aaanL	6eee-\	.
12b-J	.	.	12bb-J 12ggg- 12bbb-	.	.
8cc 8gg- 8bb-	4rc	.	8eee- 8bbb- 8eeee-	4r	.
8raa	.	.	8rc	.	.
*v	*v	*	*	*	*
*	*v	*v	*v	*
*clefF4	*	*
=111	=111	=111
*	*^	*
12CCL 12C	4A- 4e-	2.G-	.
12DD- 12D-	.	.	.
12CCJ 12C	.	.	.
12BBB-L 12BB-	4B- 4d-	.	.
12CC 12C	.	.	.
12BBB-J 12BB-	.	.	.
12AAA-L 12AA-	4c 4e-	.	.
12BBB- 12BB-	.	.	.
12AAA-J 12AA-	.	.	.
=112	=112	=112	=112
12EEE-L 12EE-	4f	2G- 2d-	.
12BBB-	.	.	.
12EEE-J 12EE-	.	.	.
12BBB-L	6g-	.	.
12EEE- 12EE-	.	.	.
12BBB-J	12g-	.	.
12EEE-L 12EE-	12g-L	4G- 4d-	.
12BBB-	12ccJ	.	.
12EEE-J 12EE-	24raa	.	.
.	24b-	.	.
=113	=113	=113	=113
12AAA-L 12AA-	2b-	4G- 4c	.
12Dn	.	.	.
12E-J	.	.	.
12AA-L 12B-	.	4G- 4e- 4g-	.
12dn	.	.	.
12e-J	.	.	.
*clefG2	*	*	*
12B-XL 12b-X	4raa	4g- 4ee- 4gg-	.
12ddn	.	.	.
12ee-J	.	.	.
*	*v	*v	*
=114	=114	=114
4b- 4bb-	4gg- 4eee- 4ggg-	.
4E- 4A- 4c-X 4e- 4cc-X	4gg- 4ccc-X 4ggg-	.
4cn 4e- 4g- 4a- 4ccn	4gg- 4cccn 4ggg-	.
*clefF4	*	*
=115	=115	=115
*^	*^	*
*	*	*	*^	*
12DD-L	4DD-	4dd-	12rc	12r	.
12A-	.	.	12enL	6d-/	.
12AA-J	.	.	12FJ 12f	.	.
12FFL	4FF	4cc	12rc	12r	.
12d-	.	.	12gnL	6f/	.
12D-J	.	.	12A-J 12a-	.	.
12AA-L	4AA-	4dd-	12rc	4r	.
12f	.	.	12gL	.	.
12FJ	.	.	12d-J 12a-	.	.
=116	=116	=116	=116	=116	=116
12BB-L	8.BB-L	4ee-	12rc	12r	.
12f	.	.	12ccnL	6a-/	.
12FJ	.	.	12d-J 12dd-	.	.
.	16FFJk	.	.	.	.
12FFL	2FF	4ff	12rc	12r	.
12f	.	.	12ccL	6a-/	.
12FJ	.	.	12d-J 12dd-	.	.
12rc	.	4aa-	12rc	12r	.
12B-L	.	.	12ccL	6a-/	.
12BB-J	.	.	12d-J 12dd-	.	.
=117	=117	=117	=117	=117	=117
12EE-L	4EE-	2.aa-	12rc	12r	.
12B-	.	.	12ccL	6g-/	.
12BB-J	.	.	12d-J 12dd-	.	.
12BB-L	4BB-	.	12rc	12r	.
12d-	.	.	12ffL	6dd-\	.
12G-J	.	.	12g-J 12gg-	.	.
12G-L	4G-	.	12rc	12r	.
12g-	.	.	12cccL	6gg-\	.
12d-J	.	.	12dd-J 12ddd-	.	.
=118	=118	=118	=118	=118	=118
12E-L	4E-	2.gg-	12rc	4r	.
*clefG2	*	*	*	*	*
12b-	.	.	12ggg-L	.	.
12d-J	.	.	12ddd-J	.	.
12d-L	4rc	.	12rc	12r	.
12gg-	.	.	12ccccL	6ggg-\	.
12b-J	.	.	12ddd-J 12dddd-	.	.
12bb-	12dd-	.	12ggg- 12dddd- 12gggg-	4r	.
12raa	12rc	.	12rc	.	.
12raa	12rc	.	12rc	.	.
*v	*v	*	*	*	*
*	*v	*v	*v	*
*clefF4	*	*
=119	=119	=119
*	*^	*
12GG-L 12G-	4e-	2.B- 2.d-	.
12AA- 12A-	.	.	.
12GG-J 12G-	.	.	.
12FFL 12F	4f	.	.
12GG- 12G-	.	.	.
12FFJ 12F	.	.	.
12EE-L 12E-	4g-	.	.
12FF 12F	.	.	.
12EE-J 12E-	.	.	.
=120	=120	=120	=120
12EE-L 12E-	4dd-	4B- 4d- 4g-	.
12BBB- 12BB-	.	.	.
12FFJ 12F	.	.	.
12EE-L 12E-	4.g-	2B- 2d-	.
12BB-	.	.	.
12EE-J 12E-	.	.	.
12BB-L	.	.	.
12EE- 12E-	.	.	.
.	8f	.	.
12FFJ 12F	.	.	.
*	*v	*v	*
=121||	=121||	=121||
*k[f#c#g#d#]	*k[f#c#g#d#]	*
*	*^	*
12FF#L 12F#	4d#	2.A 2.c#	.
12GG# 12G#	.	.	.
12FF#J 12F#	.	.	.
12EE#XL 12E#X	4e#X	.	.
12FF# 12F#	.	.	.
12EE#J 12E#	.	.	.
12DD#L 12D#	4f#	.	.
12EE# 12E#	.	.	.
12DD#J 12D#	.	.	.
=122	=122	=122	=122
*^	*	*	*
12DD#L 12D#	4rEE	4a	4A 4B#X 4f#	.
12GGG# 12GG#	.	.	.	.
12DD#J 12D#	.	.	.	.
4A 4B#X 4f#	12D#L	4bn 4bbn	2ff#	.
.	12Dn	.	.	.
.	12D#XJ	.	.	.
4rc	12rEE	4a 4aa	.	.
.	12DnL	.	.	.
.	12D#XJ	.	.	.
*v	*v	*	*	*
=123	=123	=123	=123
4E 4c# 4e	2.a 2.cc# 2.aa	4rc	.
4FFF##X 4FF##X	.	12rc	.
.	.	12d#L	.
.	.	12EJ 12c# 12e	.
4GGG# 4GG#	.	12rc	.
.	.	12d#L	.
.	.	12EJ 12c# 12e	.
=124	=124	=124	=124
*	*	*^	*
4BBB 4BB	2g# 2cc# 2gg#	12rc	4r	.
.	.	12c#L 12f##X	.	.
.	.	12G#J 12e 12g#	.	.
4AAA 4AA	.	12rc	12r	.
.	.	12b#XL	6e/	.
.	.	12c#J 12g# 12cc#	.	.
4GGG# 4GG#	4g# 4gg#	12rc	12r	.
.	.	12dd#L	6g#/	.
.	.	12eJ 12cc# 12ee	.	.
*	*	*v	*v	*
=125	=125	=125	=125
4D# 4B#X 4d#	2.g# 2.b#X 2.gg#	4rc	.
4FFF##X 4FF##X	.	12rc	.
.	.	12dnL	.
.	.	12D#J 12B#X 12d#X	.
4GGG# 4GG#	.	12rc	.
.	.	12dnL	.
.	.	12D#J 12B# 12d#X	.
=126	=126	=126	=126
*	*	*^	*
4BBB#X 4BB#X	4raa	12rc	12r	.
.	.	12f##XL	6d#/	.
.	.	12G#J 12g#	.	.
4AAA#X 4AA#X	4raa	12rc	12r	.
.	.	12bL	6d#/	.
.	.	12B#XJ 12b#X	.	.
4GGG# 4GG#	4f#X 4ff#X	12rc	4r	.
.	.	12ddnL	.	.
.	.	12e-XJ 12ccn 12ee-X	.	.
*	*v	*v	*v	*
=127||	=127||	=127||
*k[]	*k[]	*
*	*^	*
4E-X 4c 4e-X	2.a-X 2.cc 2.aa-X	4rc	.
4FFF#X 4FF#X	.	12rc	.
.	.	12dL	.
.	.	12E-XJ 12c 12e-X	.
4GGG 4GG	.	12rc	.
.	.	12dL	.
.	.	12E-J 12c 12e-	.
=128	=128	=128	=128
*	*	*^	*
4BBB-X 4BB-X	2g 2cc 2gg	12rc	12r	.
.	.	12f#XL	6c/	.
.	.	12GJ 12e-X 12g	.	.
4AAA-X 4AA-X	.	12rc	12r	.
.	.	12bL	6e-/	.
.	.	12cJ 12cc	.	.
4GGG 4GG	4e- 4ee-X	12rc	4r	.
.	.	12gL 12dd	.	.
.	.	12ccJ 12ee-	.	.
=129	=129	=129	=129	=129
4E-X 4Bn	[2e-X [2ee-X	2.bn	4r	.
4FFF#X 4FF#X	.	.	12r	.
.	.	.	12d\L	.
.	.	.	12E-X\J 12B 12e-	.
4GGG 4GG	8.e-L] 8.ee-]	.	12r	.
.	.	.	12d\L	.
.	.	.	12E-\J 12B 12e-	.
.	16fJk 16ff	.	.	.
*	*	*v	*v	*
=130	=130	=130	=130
4BBB 4BB	2g 2gg	12rc	.
.	.	12f#XL	.
.	.	12GJ 12e-X 12g	.
4AAA 4AA	.	12rc	.
.	.	12BL	.
.	.	12e-J 12g 12b	.
4GGG 4GG	4d 4dd	12rc	.
.	.	12e#XL 12cc#X	.
.	.	12bJ 12dd	.
=131	=131	=131	=131
4D 4F#X 4B 4d	8e#XL 8ee#X	4b	.
.	8f#XJ 8ff#X	.	.
4FFF#X 4FF#X	12dddL 12fff#X	4rc	.
.	12ff#	.	.
.	12cc#XJ	.	.
4GGG 4GG	12ddL 12ff#	4rc	.
.	12f#	.	.
.	12c#XJ	.	.
*	*v	*v	*
=132	=132	=132
4GGG#X 4GG#X	12dL 12f#X	.
*	*clefF4	*
.	12F#X	.
.	12C#XJ	.
4AAA 4AA	12DL 12F#	.
.	12FF#X	.
.	12DJ 12F#	.
4AAA#X 4AA#X	12FF#L	.
.	12D 12F#	.
.	12FF#J	.
=133	=133	=133
4BBB 4BB	4FF#X 4D 4F#X	.
*	*clefG2	*
4AAAn 4AAn	12ddL 12ff#X	.
.	12f#X	.
.	12c#XJ	.
4AAA#X 4AA#X	12dL 12f#	.
*	*clefF4	*
.	12F#	.
.	12C#XJ	.
=134	=134	=134
*	*^	*
8.BBBL 8.BB	12DL 12F#X	4rEE	.
.	12FF#X	.	.
.	12DJ 12F#	.	.
16FFF#XJk 16FF#X	.	.	.
*	*clefG2	*	*
4FFF# 4FF#	12raa	4rc	.
.	12cc#XL	.	.
.	12dJ 12b 12dd	.	.
4GG-X 4C#X 4B-X	12raa	12rc	.
.	12bL 12ee-X	6b	.
.	12enJ 12een	.	.
=135	=135	=135	=135
*^	*	*	*
4F	12FFL	2.gg 2.ggg	2.bb-X	.
.	12AA	.	.	.
.	12BB-XJ	.	.	.
4rc	12C#XL	.	.	.
.	12D	.	.	.
.	12EJ	.	.	.
4rc	12FL	.	.	.
.	12A	.	.	.
.	12B-XJ	.	.	.
=136	=136	=136	=136	=136
12c#XL	4F	2ff 2fff	2.bb-X	.
*clefG2	*	*	*	*
12d	.	.	.	.
12eJ	.	.	.	.
12fL	4rc	.	.	.
12a	.	.	.	.
12b-XJ	.	.	.	.
12cc#XL	4rc	4ff 4fff	.	.
12dd	.	.	.	.
12eeJ	.	.	.	.
*v	*v	*	*	*
*	*v	*v	*
=137	=137	=137
4ff	4ff 4fff	.
*clefF4	*	*
4r	12fL	.
.	12a	.
.	12b-XJ	.
4F 4d 4b-X	12cc#XL	.
.	12dd	.
.	12eeJ	.
=138	=138	=138
4F 4d 4b-X	12ffL	.
.	12aa	.
.	12bb-XJ	.
4r	12ccc#XL	.
.	12ddd	.
.	12eeeJ	.
4r	12fffL	.
.	12bbb-X	.
.	12ffffJ	.
=139	=139	=139
*^	*^	*
4F	12DDL	2.aa 2.aaa	2.fff	.
.	12AA	.	.	.
.	12BB-XJ	.	.	.
4rc	12C#XL	.	.	.
.	12D	.	.	.
.	12EJ	.	.	.
4rc	12FL	.	.	.
.	12A	.	.	.
.	12B-XJ	.	.	.
=140	=140	=140	=140	=140
12c#XL	4F	2bb-X 2bbb-X	2.fff	.
*clefG2	*	*	*	*
12d	.	.	.	.
12eJ	.	.	.	.
12fL	4rc	.	.	.
12a	.	.	.	.
12b-XJ	.	.	.	.
12cc#XL	4rc	4bb- 4bbb-	.	.
12dd	.	.	.	.
12eeJ	.	.	.	.
*v	*v	*	*	*
*clefF4	*	*	*
=141	=141	=141	=141
4r	4bb-X 4bbb-X	4ff	.
4r	12fL	4rc	.
.	12a	.	.
.	12b-XJ	.	.
4BBB-X 4BB-X	12cc#XL	4rc	.
.	12dd	.	.
.	12eeJ	.	.
*	*v	*v	*
=142	=142	=142
4F 4d 4b-X	12ffL	.
.	12aa	.
.	12bb-XJ	.
4D 4B-X 4f	12ccc#XL	.
.	12ddd	.
.	12eee-XJ	.
4BB-X 4B-X	12dddL	.
.	12bb-X	.
.	12bbb-XJ	.
=143	=143	=143
4AA-X 4A-X	4ccc-X 4aaa-X 4cccc-X	.
4DD#X 4D#X	12bbbL 12dddd#X	.
.	12ddd#X	.
.	12aa#XJ	.
4EE 4E	12bbL 12ddd#	.
.	12dd#X	.
.	12a#XJ	.
=144	=144	=144
4EE#X 4E#X	12bL 12dd#X	.
.	12d#X	.
.	12A#XJ	.
4FF#X 4F#X	12BL 12d#	.
.	12D#X	.
.	12BJ 12d#	.
4FF##X 4F##X	12D#L	.
.	12B 12d#	.
.	[12D#J	.
=145	=145	=145
4GG#X 4G#X	4D#] 4B 4d#X	.
4FF#X 4F#X	12bbL 12ddd#X	.
.	12dd#X	.
.	12a#XJ	.
4FF##X 4F##X	12bL 12dd#	.
.	12d#	.
.	12A#XJ	.
=146	=146	=146
*	*^	*
8.GG#XL 8.G#X	12BL 12d#X	4rc	.
.	12D#X	.	.
.	12BJ 12d#	.	.
16DD#XJk 16D#X	.	.	.
4DD# 4D#	12raa	4rc	.
.	12a#XL	.	.
.	12BJ 12g#X 12b	.	.
4D# 4B	12raa	12rc	.
.	12g#L 12cc##X	6g#	.
.	12d#J 12dd#X	.	.
=147	=147	=147	=147
*^	*	*	*
4F#X	12DD#XL	2.ccc#X 2.cccc#X	2.fff#X	.
.	12AA#X	.	.	.
.	12BBJ	.	.	.
4rc	12C##XL	.	.	.
.	12D#X	.	.	.
.	12E#XJ	.	.	.
4rc	12F#L	.	.	.
.	12A#X	.	.	.
.	12BJ	.	.	.
*v	*v	*	*	*
*clefG2	*	*	*
=148	=148	=148	=148
12c##XL	2bb 2bbb	2.fff#X	.
12d#X	.	.	.
12e#XJ	.	.	.
12f#XL	.	.	.
12a#X	.	.	.
12bJ	.	.	.
12cc##XL	4bb 4bbb	.	.
12dd#X	.	.	.
12ee#XJ	.	.	.
*clefF4	*	*	*
=149	=149	=149	=149
4r	4bb 4bbb	4ff#X	.
4r	4raa	12f#XL	.
.	.	12a#X	.
.	.	12bJ	.
4D#X 4B 4f#X	4raa	12cc##XL	.
.	.	12dd#X	.
.	.	12ee#XJ	.
*	*v	*v	*
=150	=150	=150
4D#X 4B 4f#X	12ff#XL	.
.	12aa#X	.
.	12bbJ	.
4r	12ccc##XL	.
.	12ddd#X	.
.	12eee#XJ	.
4r	12fff#XL	.
.	12bb	.
.	12bbbJ	.
=151	=151	=151
*	*^	*
12BBBL	2.gg#X 2.ddd#X 2.ggg#X	2.fff#X	.
12FF#X	.	.	.
12BBJ	.	.	.
12C##XL	.	.	.
12D#X	.	.	.
12E#XJ	.	.	.
12F#XL	.	.	.
12A#X	.	.	.
12BJ	.	.	.
*clefG2	*	*	*
=152	=152	=152	=152
12c##XL	2gg##X 2ggg##X	2.ddd#X 2.fff#X	.
12d#X	.	.	.
12e#XJ	.	.	.
12f#XL	.	.	.
12a#X	.	.	.
12bJ	.	.	.
12cc##XL	4gg## 4ggg##	.	.
12dd#X	.	.	.
12ee#XJ	.	.	.
*clefF4	*	*	*
=153	=153	=153	=153
4r	4gg##X 4ggg##X	4ff#X	.
4r	4raa	12f#XL	.
.	.	12a#X	.
.	.	12bJ	.
4F#X 4B 4f#X	4raa	12cc##XL	.
.	.	12dd#X	.
.	.	12ee#XJ	.
=154	=154	=154	=154
4BB 4F#X 4B	2.ryy	12ff#XL	.
.	.	12aa#X	.
.	.	12bbJ	.
4FF#X 4BB 4F#	.	12ccc##XL	.
.	.	12ddd#X	.
.	.	12eee#XJ	.
4BBB 4BB	.	12fff#XL	.
.	.	12fff#	.
.	.	12ffff#XJ	.
*	*v	*v	*
=155||	=155||	=155||
*k[b-e-a-d-g-c-]	*k[b-e-a-d-g-c-]	*
*	*^	*
4G- 4B- 4e- 4g-	4raa	4rc	.
4BBB- 4BB-	12raa	12rc	.
.	12b-L 12ff	6b-	.
.	12g-J 12ee- 12gg-	.	.
4G- 4B- 4e- 4g-	12raa	12rc	.
.	12bb-L 12fff	6bb-	.
.	12gg-J 12eee- 12ggg-	.	.
=156	=156	=156	=156
4G- 4c- 4e- 4g-	4raa	4rc	.
4BBB- 4BB-	12raa	12rc	.
.	12cc-L 12ff	6cc-	.
.	12g-J 12ee- 12gg-	.	.
4G- 4c- 4e- 4g-	12raa	12rc	.
.	12ccc-L 12fff	6ccc-	.
.	12gg-J 12eee- 12ggg-	.	.
=157	=157	=157	=157
4G- 4cn 4e- 4g-	4raa	4rc	.
4BBB- 4BB-	12raa	12rc	.
.	12ccnL 12ff	6cc	.
.	12g-J 12ee- 12gg-	.	.
4G- 4c 4e- 4g-	12raa	12rc	.
.	12cccnL 12fff	6ccc	.
.	12gg-J 12eee- 12ggg-	.	.
=158	=158	=158	=158
4G- 4cn 4e- 4an	4raa	4rc	.
4BBB- 4BB-	12raa	12rc	.
.	12ee-L 12aa-	6ee-	.
.	12anJ 12gg- 12aan	.	.
4G- 4c 4e- 4a	12raa	12rc	.
.	12eee-L 12aaa-	6eee-	.
.	12aanJ 12ggg- 12aaan	.	.
*	*v	*v	*
=159	=159	=159
4BBBB- 4BBB-	4bb- 4bbb-	.
4D-X 4A- 4B- 4d-X	4f-X 4b- 4ff-X	.
4Dn 4A- 4B- 4dn	4fn 4b- 4ffn	.
=160	=160	=160
4E- 4A- 4B- 4e-	4g- 4b- 4gg-	.
4F 4B- 4f	4a- 4ddn 4aa-	.
4G- 4c- 4g-	4cc- 4ee- 4ccc-	.
=161	=161	=161
4A- 4dn 4a-	2.b- [2.ddn 2.bb-	.
4BBB- 4BB-	.	.
8r	.	.
16r	.	.
16BBB- 16BB-	.	.
=162	=162	=162
4BBB- 4BB-	2.a- 2.dd] 2.aa-	.
4CC- 4C-	.	.
4FFF 4FF	.	.
=163	=163	=163
*M22/4	*M22/4	*
12BBBB- 12BBB-	12r	.
12DnL 12A- 12B- 12dn	12fnL 12b- 12ffn	.
12D-XJ 12A- 12B- 12d-X	12f-XJ 12b- 12ff-X	.
12DnL 12A- 12B- 12dn	12fnL 12b- 12ffn	.
12E- 12A- 12B- 12e-	12g- 12b- 12gg-	.
12G-J 12B- 12g-	12b-J 12ddn 12bb-	.
12FL 12B- 12f	12a-L 12dd 12aa-	.
12F 12B- 12f	12a- 12dd 12aa-	.
12F-XJ 12B- 12f-X	12gnJ 12dd 12ggn	.
12FnL 12B- 12fn	12a-L 12dd 12aa-	.
12G-J 12B- 12g-	12b- 12dd 12bb-	.
*clefG2	*	*
12B- 12dn 12b-	12dd-XJ 12ff 12ddd-X	.
12A-L 12d 12a-	12cc-L 12ff 12ccc-	.
12A- 12d 12a-	12cc- 12ff 12ccc-	.
12GnJ 12d 12gn	12b-J 12ff 12bb-	.
12A-L 12d 12a-	12cc-L 12ff 12ccc-	.
12B- 12dn 12b-	12dd-X 12ff 12ddd-X	.
12d-XJ 12f 12dd-X	12ffJ 12aa- 12fff	.
12c-L 12f 12cc-	12ee-L 12aa- 12eee-	.
12B- 12f 12b-	12ddn 12aa- 12dddn	.
12e-J 12a- 12ee-	12ggJ 12ccc- 12gggn	.
12e-L 12a- 12ee-	12ggL 12ccc- 12ggg	.
12dn 12a- 12ddn	12ff 12ccc- 12fff	.
12gJ 12b- 12ggn	12bb-J 12dddn 12bbb-	.
12gL 12b- 12gg	12bb-L 12ddd 12bbb-	.
12f 12b- 12ff	12aa- 12ddd 12aaa-	.
12b-J 12ddn 12bb-	12ddd-XJ 12fff 12dddd-X	.
12b-L 12ddn 12bb-	12ddd-XL 12fff 12dddd-X	.
12a- 12dd 12aa-	12ccc- 12fff 12cccc-	.
12ee-J 12eee-	12fffJ 12aaa- 12cccc- 12ffff	.
12ddL 12dddn	12fffL 12aaa- 12cccc- 12ffff	.
12dd-X 12ddd-X	12dddn 12fff 12aaa- 12ddddn	.
12cc-J 12ccc-	12dddJ 12fff 12aaa- 12dddd	.
12b-L 12bb-	12ccc-L 12ddd 12fff 12cccc-	.
12a- 12aa-	12ccc- 12ddd 12fff 12cccc-	.
12g-XJ 12gg-X	12aa-J 12ccc- 12ddd 12aaa-	.
12fL 12ff	12aa-L 12ccc- 12ddd 12aaa-	.
12e- 12ee-	12ff 12aa- 12ccc- 12fff	.
12dnJ 12ddn	12ffJ 12aa- 12ccc- 12fff	.
12d-XL 12dd-X	12ddnL 12ff 12aa- 12ddd	.
12c- 12cc-	12dd 12ff 12aa- 12ddd	.
12B-J 12b-	12cc-J 12dd 12ff 12ccc-	.
12A-L 12a-	12cc- 12ddn 12ff 12ccc-	.
12G-X 12g-	12a-L 12cc- 12ddn 12aa-	.
*clefF4	*	*
12FJ 12f	12a-J 12cc- 12dd 12aa-	.
12E-L 12e-	12fL 12a- 12cc- 12ff	.
12Dn 12dn	12f 12a- 12cc- 12ff	.
12D-XJ 12d-X	12dnJ 12f 12a- 12ddn	.
12C-L 12c-	12dL 12f 12a- 12dd	.
12BB- 12B-	12c- 12d 12f 12cc-	.
12AA-J 12A-	12c-J 12d 12f 12cc-	.
12GG-L 12G-	12A-L 12c- 12dn 12a-	.
12FF 12F	12A- 12c- 12d 12a-	.
12EE-J 12E-	12FJ 12A- 12c- 12f	.
*	*clefF4	*
12DDnL 12Dn	12FL 12A- 12c- 12f	.
12DD-X 12D-X	12Dn 12F 12A- 12dn	.
12CC-J 12C-	12DJ 12F 12A- 12d	.
12BBB-L 12BB-	12DL 12F 12A- 12d	.
12CC- 12C-	12D 12F 12A- 12d	.
12BBB-J 12BB-	12DJ 12F 12A- 12d	.
12CC-L 12C-	12DL 12F 12A- 12d	.
12BBB- 12BB-	12D 12F 12A- 12d	.
12CC-J 12C-	12DJ 12F 12A- 12d	.
12BBB-L 12BB-	12DL 12F 12A- 12d	.
12CC- 12C-	12D 12F 12A- 12d	.
12BBB-J 12BB-	12DJ 12F 12A- 12d	.
*	*clefG2	*
=164	=164	=164
*M3/4	*M3/4	*
*^	*^	*
8E-L	4EE- 4E-	12raa	12rc	.
.	.	12B-L 12f	6B-	.
8BB-J	.	.	.	.
.	.	12G-J 12e- 12g-	.	.
8G-L	4GG- 4G-	12raa	12rc	.
.	.	12e-L 12an	6e-	.
8E-J	.	.	.	.
.	.	12B-J 12g- 12b-	.	.
8B-L	4BB- 4B-	12raa	12rc	.
.	.	12g-L 12ddn	6g-	.
8G-J	.	.	.	.
.	.	12e-J 12b- 12ee-	.	.
=165	=165	=165	=165	=165
8c-L	8.C-L 8.c-	12raa	12rc	.
.	.	12g-L 12ddn	6g-	.
8G-J	.	.	.	.
.	.	12e-J 12an 12ee-	.	.
.	16GG-Jk 16G-	.	.	.
8G-L	2GG- 2G-	12raa	12rc	.
.	.	12e-L 12a-X	6e-	.
8E-J	.	.	.	.
.	.	12AnJ 12g- 12an	.	.
8G-L	.	12raa	12rc	.
.	.	12e-L 12a-X	6e-	.
8E-J	.	.	.	.
.	.	12AnJ 12g- 12an	.	.
=166	=166	=166	=166	=166
8B-L	8.BB-L 8.B-	12raa	12rc	.
.	.	12g-L 12ddn	6g-	.
8G-J	.	.	.	.
.	.	12e-J 12b- 12ee-	.	.
.	16GG-Jk 16G-	.	.	.
8G-L	2GG- 2G-	12raa	12rc	.
.	.	12e-L 12an	6e-	.
8E-J	.	.	.	.
.	.	12B-J 12g- 12b-	.	.
8G-L	.	12raa	12rc	.
.	.	12e-L 12a	6e-	.
8E-J	.	.	.	.
.	.	12B-J 12g- 12b-	.	.
=167	=167	=167	=167	=167
8AnL	8.AAnL 8.A	12raa	12rc	.
.	.	12g-L 12ddn	6g-	.
8G-J	.	.	.	.
.	.	12e-J 12cc- 12ee-	.	.
.	16GG-Jk 16G-	.	.	.
8G-L	2GG- 2G-	12raa	12rc	.
.	.	12e-L 12b-	6e-	.
8E-J	.	.	.	.
.	.	12c-J 12g- 12cc-	.	.
8G-L	.	12raa	12rc	.
.	.	12e-L 12b-	6e-	.
8E-J	.	.	.	.
.	.	12c-J 12an 12cc-	.	.
=168	=168	=168	=168	=168
8B-L	4BB- 4B-	12raa	12rc	.
.	.	12g-L 12ddn	6g-	.
8G-J	.	.	.	.
.	.	12e-J 12b- 12ee-	.	.
8G-L	4GG- 4G-	12raa	12rc	.
.	.	12e-L 12an	6e-	.
8E-J	.	.	.	.
.	.	12B-J 12g- 12b-	.	.
8E-L	4EE- 4E-	12raa	12rc	.
.	.	12B-L 12f	6B-	.
8BB-J	.	.	.	.
.	.	12G-J 12e- 12g-	.	.
=169	=169	=169	=169	=169
8E-L	8.EE-L 8.E-	12raa	12rc	.
.	.	12AnL 12f	6A	.
8C-J	.	.	.	.
.	.	12G-J 12e- 12g-	.	.
.	16CC-Jk 16C-	.	.	.
8C-L	2CC- 2C-	12raa	12rc	.
.	.	12AL 12dn	6A	.
8GG-J	.	.	.	.
.	.	12E-J 12e-	.	.
8C-L	.	12raa	12rc	.
.	.	12AL 12d	6A	.
8GG-J	.	.	.	.
.	.	12E-J 12e-	.	.
=170	=170	=170	=170	=170
8E-L	8.EE-L 8.E-	12raa	12rc	.
.	.	12B-L 12f	6B-	.
8BB-J	.	.	.	.
.	.	12G-J 12e- 12g-	.	.
.	16BBB-Jk 16BB-	.	.	.
8BB-L	2BBB- 2BB-	12raa	12rc	.
.	.	12G-L 12dn	6G-	.
8GG-J	.	.	.	.
.	.	12E-J 12B- 12e-	.	.
8BB-L	.	12raa	12rc	.
.	.	12G-L 12d	6G-	.
8GG-J	.	.	.	.
.	.	12E-J 12B- 12e-	.	.
=171	=171	=171	=171	=171
8E-L	8.EE-L 8.E-	12raa	12rc	.
.	.	12c-L 12f	6c-	.
8AA-J	.	.	.	.
.	.	12G-J 12e- 12g-	.	.
.	16AAA-Jk 16AA-	.	.	.
8AA-L	2AAA- 2AA-	12raa	12rc	.
.	.	12G-L 12dn	6G-	.
8EE-J	.	.	.	.
.	.	12E-J 12c- 12e-	.	.
8E-L	.	12raa	12rc	.
.	.	12FL 12d-X	6F	.
8EE-J	.	.	.	.
.	.	12DnJ 12c- 12dn	.	.
=172	=172	=172	=172	=172
8GG-L	4GGG- 4GG-	12raa	12rc	.
.	.	12B-L 12dn	6B-	.
8EE-J	.	.	.	.
.	.	12E-J 12e-	.	.
8AA-L	4AAA- 4AA-	12raa	12rc	.
.	.	12c-L 12f-X	6c-	.
8EE-J	.	.	.	.
.	.	12FJ 12e- 12fn	.	.
8BB-L	4BBB- 4BB-	12raa	12rc	.
.	.	12dL 12f	6d	.
8GG-J	.	.	.	.
.	.	12G-J 12B- 12g-	.	.
=173	=173	=173	=173	=173
8C-L	8.CC-L 8.C-	12raa	12rc	.
.	.	12fL	6e-	.
8GG-J	.	.	.	.
.	.	12G-J 12c- 12g-	.	.
.	16FFFJk 16FF	.	.	.
8rc	2FFF 2FF	12raa	12rc	.
.	.	12c-L 12gn	6c-	.
8E-	.	.	.	.
.	.	12A-J 12e- 12a-	.	.
8B-L	.	12raa	12rc	.
.	.	12e-L 12b-	6e-	.
8A-J	.	.	.	.
.	.	12c-J 12a- 12cc-	.	.
=174	=174	=174	=174	=174
8FL	4FF 4F	12raa	12rc	.
.	.	12ddnL	[6cc-	.
8E-J	.	.	.	.
.	.	12e-J 12ee-	.	.
8G-L	4GG- 4G-	12raa	12cc-]	.
.	.	12b-L 12dd	[6b-	.
8E-J	.	.	.	.
.	.	12e-J 12ee-	.	.
8A-L	4AA- 4A-	12raa	12b-]	.
.	.	12a-L 12dd	6a-	.
8E-J	.	.	.	.
.	.	12e-J 12cc- 12ee-	.	.
=175	=175	=175	=175	=175
8AnL	2AAn 2A	12raa	12rc	.
.	.	12g-L 12ddn	6g-	.
8E-J	.	.	.	.
.	.	12e-J 12cc- 12ee-	.	.
8e-L	.	12raa	12rc	.
.	.	12fL	6cc-	.
8E-J	.	.	.	.
.	.	12g-J 12ff	.	.
8AL	4AA 4A	12raa	12rc	.
.	.	12g-L 12dd	6g-	.
8E-J	.	.	.	.
.	.	12e-J 12cc- 12ee-	.	.
=176	=176	=176	=176	=176
8B-L	2BB- 2B-	12raa	12rc	.
.	.	12g-L 12ddn	6g-	.
8G-J	.	.	.	.
.	.	12e-J 12b- 12ee-	.	.
8e-L	.	12raa	12rc	.
.	.	12fL	6b-	.
8G-J	.	.	.	.
.	.	12g-J 12ff	.	.
8B-L	4BB- 4B-	12raa	12rc	.
.	.	12b-L 12ddn	6b-	.
8G-J	.	.	.	.
.	.	12e-J 12ee-	.	.
=177	=177	=177	=177	=177
8c-L	2C- 2c-	12raa	12rc	.
.	.	12anL 12ddn	6a	.
8G-J	.	.	.	.
.	.	12e-J 12ee-	.	.
8e-L	.	12raa	12rc	.
.	.	12fL	6a	.
8G-J	.	.	.	.
.	.	12g-J 12ff	.	.
8c-L	4C- 4c-	12raa	12rc	.
.	.	12aL 12dd	6a	.
8G-J	.	.	.	.
.	.	12e-J 12ee-	.	.
=178	=178	=178	=178	=178
8cnL	4Cn 4c	12raa	12rc	.
.	.	12anL 12ddn	6a	.
8FJ	.	.	.	.
.	.	12e-J 12ee-	.	.
8B-L	4BB- 4B-	12raa	12rc	.
.	.	12cc#XL	6b-	.
8FJ	.	.	.	.
.	.	12dnJ 12dd	.	.
8FL	4FF 4F	12raa	12rc	.
.	.	12b-L 12een	6b-	.
8DnJ 8B-	.	.	.	.
.	.	12dJ 12ff	.	.
=179	=179	=179	=179	=179
8B-L	4BB- 4B-	12raa	12rc	.
.	.	12gnL 12ccn	6g	.
8E-J	.	.	.	.
.	.	12d-J 12dd-	.	.
8A-L	4AA- 4A-	12raa	12rc	.
.	.	12bnL	6a-	.
8E-J	.	.	.	.
.	.	12cnJ 12cc	.	.
4AAA- 4AA-	4rEE	12raa	12rc	.
.	.	12A-L 12dn	6A-	.
.	.	12E-J 12cn 12e-	.	.
*v	*v	*	*	*
=180	=180	=180	=180
8AAAn 8AAn	12raa	12rc	.
.	12F#XL 12dn	6F#	.
8AA	.	.	.
.	12E-J 12cn 12e-	.	.
8FL	12raa	12rc	.
.	12cL 12fn	6c	.
8E-J	.	.	.
.	12F#XJ 12e- 12f#X	.	.
8cnL	12raa	12rc	.
.	12f#L 12bn	6f#	.
8F#XJ	.	.	.
.	12cJ 12ccn	.	.
=181	=181	=181	=181
8AAnL	12raa	12rc	.
.	12f#XL 12ddn	6f#	.
8F#XJ	.	.	.
.	12e-J 12ccn 12ee-	.	.
8e-L	12raa	12rc	.
.	12ccL 12ffn	6cc	.
8F#J	.	.	.
.	12f#XJ 12ff#X	.	.
8f#XL	12raa	12rc	.
.	12ff#L 12bbn	6ff#	.
8AAJ	.	.	.
.	12ccJ 12ee- 12cccn	.	.
*	*v	*v	*
=182||	=182||	=182||
*k[b-e-a-]	*k[b-e-a-]	*
*	*^	*
[8qBB-/	.	.	.
4BB-] 4G 4e- 4g	4b- 4ee- 4bb-	4rc	.
4An	12raa	12rc	.
.	12gL 12ddn	6g	.
.	12e-J 12ee-	.	.
4B-	12raa	12rc	.
.	12gL 12dd	6g	.
.	12e-J 12ee-	.	.
=183	=183	=183	=183
4dn	12raa	12rc	.
.	12ff#XL	6ee-	.
.	12gJ 12gg	.	.
4c	12raa	12rc	.
.	12ff#L	6ee-	.
.	12gJ 12gg	.	.
4B-	12raa	4rc	.
.	12ee-L 12bb-	.	.
.	12gJ	.	.
*	*v	*v	*
=184	=184	=184
*^	*	*
[2.BB- [2.F [2.e-	2.A-	4bb-	.
.	.	4ccc	.
.	.	4bb-	.
=185	=185	=185	=185
2.BB-_ 2.F_ 2.e-]	2.A-	16%3aa-	.
.	.	16%3ff	.
.	.	16%3ee-	.
.	.	16%3cc	.
*v	*v	*	*
=186	=186	=186
*M6/8	*M6/8	*
*^	*	*
8BB-] 8F] 8d	8A-	8b-L	.
8rc	8rEE	8an	.
8rc	8rEE	8b-J	.
4rc	4rEE	8bnL	.
.	.	8cc	.
8rc	8rEE	8dd-XJ	.
=187	=187	=187	=187
*	*	*^	*
16%3gL	4.B-	8ddnL	2.a-	.
.	.	8cc	.	.
16%3fJ	.	.	.	.
.	.	8ddJ	.	.
4.e-	8cL	8ee-L	.	.
.	8c-X	8ff	.	.
.	8FJ	8aa-J	.	.
=188	=188	=188	=188	=188
8d	8B-	4.gg	4.a-	.
8AAAnL 8AAn	8rEE	.	.	.
8BBB-J 8BB-	8rEE	.	.	.
8CC-XL 8C-X	4.rEE	4.e- 4.a- 4.ff	4.rc	.
8DD-X 8D-X	.	.	.	.
8CCnJ 8C-	.	.	.	.
=189	=189	=189	=189	=189
4.BB- 4.f	[2.F [2.A-	8ddL	2.a-	.
.	.	8cc	.	.
.	.	8ddJ	.	.
4.C-X 4.e-	.	32%3ee-L	.	.
.	.	32%3ff	.	.
.	.	32%3bb-	.	.
.	.	32%3aa-J	.	.
=190	=190	=190	=190	=190
8BB- 8d	8F] 8A-]	4gg	4.a-	.
8AAAnL 8AAn	8rEE	.	.	.
8BBB-J 8BB-	8rEE	8ff	.	.
8CCL 8C	4.rEE	4.B- 4.f 4.a- 4.b-	4.rc	.
8DD-X 8D-X	.	.	.	.
8DDnJ 8Dn	.	.	.	.
=191	=191	=191	=191	=191
4.BB- 4.B-	2.EE- 2.E-	8b-L	4.B- 4.e- 4.g	.
.	.	8an	.	.
.	.	8b-J	.	.
4.AAn 4.An	.	8bnL	4.g	.
.	.	8cc	.	.
.	.	8cc#XJ	.	.
=192	=192	=192	=192	=192
8AnL	4.DD 4.AAn 4.D	4dd	4.f#X	.
8G#X	.	.	.	.
8AJ	.	8cc#X	.	.
8e-L	4.D	8ccnL	4.f# 4.dd	.
8d	.	8b-	.	.
8cJ	.	8anJ	.	.
*v	*v	*	*	*
=193	=193	=193	=193
4.GGn 4.D 4.B-	8ddL	4.g	.
.	8cc#X	.	.
.	8dJ 8dd	.	.
4GG-X 4C 4B-	8e-L 8ee-	4b-	.
.	8en 8een	.	.
8FF 8C 8An	[8fJ [8ff	[8an	.
=194	=194	=194	=194
8FFF 8FF	8fL] 8ff]	8a]	.
4FF 4F	8dd	4e- 4an	.
.	8ccJ	.	.
4BB- 4F	8e-L 8a-X 8cc	4.rc	.
.	8d 8b-	.	.
8r	8cJ 8ee-	.	.
=195	=195	=195	=195
*^	*	*	*
16%3gL	4.B-	8ddL	2.a-	.
.	.	8cc	.	.
16%3fJ	.	.	.	.
.	.	8ddJ	.	.
4.e-	8cL	8ee-L	.	.
.	8c-X	8ff	.	.
.	8FJ	8aa-J	.	.
=196	=196	=196	=196	=196
8d	8B-	4.gg	4.a-	.
8AAAnL 8AAn	8rEE	.	.	.
8BBB-J 8BB-	8rEE	.	.	.
8CC-XL 8C-X	4.rEE	4.e- 4.a- 4.ff	4.rc	.
8DD-X 8D-X	.	.	.	.
8CC-J 8C-	.	.	.	.
=197	=197	=197	=197	=197
4.f	4.BB- [4.F [4.A-	8ddL	2.a-	.
.	.	8cc	.	.
.	.	8ddJ	.	.
4.e-	4.C-X 4.F_ 4.A-_	40%3ee-L	.	.
.	.	40%3ff	.	.
.	.	40%3gg	.	.
.	.	40%3bb-	.	.
.	.	40%3aa-J	.	.
=198	=198	=198	=198	=198
8d	8BB- 8F] 8A-]	4gg	4a-	.
8BBB-L 8BB-	8rEE	.	.	.
8BBBnJ 8BBn	8rEE	8f 8a- 8dd 8ff	8rc	.
8CCL 8C	4.rEE	8cL 8f 8a- 8cc	4.rc	.
8DD-X 8D-X	.	8c-X 8f 8a- 8cc-X	.	.
8DDnJ 8Dn	.	8B-J 8f 8a- 8b-	.	.
=199	=199	=199	=199	=199
16%3BB-L 16%3B-	4.EE- 4.E-	8b-L	4.g	.
.	.	8an	.	.
16%3BB-J 16%3B-	.	.	.	.
.	.	8b-J	.	.
[4.BB- [4.B-	8.rEE	8dd-XL	4.d-X 4.g-X	.
.	.	8cc	.	.
.	8.EEn 8.En	.	.	.
.	.	8b-J	.	.
=200	=200	=200	=200	=200
8BB-] 8B-]	8FF 8F	8b-	8dn 8f	.
8rc	8rEE	8b-L 8een	4b-	.
8D 8B-	8rEE	8fJ 8ff	.	.
8FL 8d	4.rEE	8b-L 8ff 8bb-	4.rc	.
8B- 8f	.	8dd 8bb- 8ddd	.	.
8dJ 8b-	.	8ffJ 8bb- 8fff	.	.
=201	=201	=201	=201	=201
16%3BB-L 16%3B-	4.FF 4.F	8b-L	4.d 4.f	.
.	.	8an	.	.
16%3BB-J 16%3B-	.	.	.	.
.	.	8b-J	.	.
4.BB- 4.B-	8.rEE	8dd-XL	4.d-X 4.f-X	.
.	.	8cc	.	.
.	8.GG-X 8.G-X	.	.	.
.	.	8b-J	.	.
*v	*v	*	*	*
=202	=202	=202	=202
8GGnL 8Gn	8b-L	4d-X 4e-	.
8GG	8ee-	.	.
8E-J	8ddnJ	8rc	.
8e-L	8dd-XL	4.rc	.
8E-	8b-	.	.
8e-J	8d-J 8bn	.	.
=203	=203	=203	=203
16%3E-L 16%3A- 16%3e-	8cL 8cc	4.a-	.
.	8Bn 8bn	.	.
16%3AAA-J 16%3AA-	.	.	.
.	8cJ 8cc	.	.
8GGG-XL 8GG-X	8dnL 8ddn	4cc	.
8C 8B-	8e- 8ee-	.	.
8B-J 8b-	8enJ 8een	8cc	.
=204	=204	=204	=204
8FFF 8FF	4.f 4.ff	8rc	.
8CL 8F 8An	.	8e-L 8f	.
8CJ 8F 8B-	.	8e-J 8gn	.
8CL 8F 8c	4.e- 4.ee-	4.an	.
8G-X 8g-X	.	.	.
8FJ 8f	.	.	.
=205	=205	=205	=205
16%3FL 16%3B- 16%3f	8d-XL 8dd-X	4.b-	.
.	8c 8cc	.	.
16%3BBB-J 16%3BB-	.	.	.
.	8d-J 8dd-	.	.
8AAA-L 8AA-	8e-L 8dd- 8ee-	4.rc	.
8D-X 8B-	8en 8dd- 8een	.	.
8B-J 8d-X 8b-	8fJ 8dd- 8ff	.	.
=206	=206	=206	=206
8GGG 8GG	4.g 4.gg	8rc	.
8D-XL 8G 8Bn	.	8fL 8g	.
8D-J 8G 8B	.	8fJ 8an	.
8DnL 8G 8Bn	4.f 4.ff	4.bn	.
8A- 8a-	.	.	.
8GJ 8g	.	.	.
=207	=207	=207	=207
16%3CCL 16%3C	8e-L 8ee-	4cc	.
.	8d 8dd	.	.
16%3GGJ 16%3G	.	.	.
.	8cJ 8cc	8g	.
16%3E-L 16%3G 16%3e-	8BnL 8bn	4.g	.
.	8c 8cc	.	.
16%3CCJ 16%3C	.	.	.
.	8dJ 8dd	.	.
=208	=208	=208	=208
8CC-XL 8C-X	40%3e-L 40%3ee-	4.an	.
.	40%3f 40%3ff	.	.
8E- 8An 8e-	.	.	.
.	40%3e- 40%3ee-	.	.
.	40%3d 40%3dd	.	.
8FF#XJ 8F#X	.	.	.
.	40%3e-J 40%3ee-	.	.
4An 4e- 4an	8fL 8ff	4.ee-	.
.	8f#X 8ff#X	.	.
8BBB- 8BB-	[8gJ [8gg	.	.
=209	=209	=209	=209
4G 4e-	8gL] 8gg]	4.b-	.
.	8f#X 8ff#X	.	.
*clefG2	*	*	*
8B-	8gJ 8gg	.	.
8gL 8ee-	8anL 8aan	4.gg	.
8B-J	8b- 8bb-	.	.
*clefF4	*	*	*
8BBB- 8BB-	[8dd-XJ [8ddd-X	.	.
=210	=210	=210	=210
4G 4en	8dd-L] 8ddd	4.een	.
.	8cc 8ccc	.	.
*clefG2	*	*	*
8B-X	8b-J 8bb-	.	.
8enL 8dd-X	4a- 4aa-	4.ee	.
8B-J	.	.	.
*clefF4	*	*	*
8BBB- 8BB-	8g 8gg	.	.
=211	=211	=211	=211
4A- 4e-	8fL 8ff	4.cc-X	.
.	8en 8een	.	.
*clefG2	*	*	*
8c-X	8fJ 8ff	.	.
8e-L 8cc-X	8gL 8gg	4.ee	.
8c-XJ	8a- 8aa-	.	.
*clefF4	*	*	*
8BBB- 8BB-	8cc-XJ 8ccc-X	.	.
=212	=212	=212	=212
8A-L	8b-L 8bb-	4.dd	.
8d	8a- 8aa-	.	.
[8A-J	8gJ 8gg	.	.
4A-] 4d 4b-	4g 4gg	4.dd	.
8BBB- 8BB-	8f 8ff	.	.
=213	=213	=213	=213
4G 4B-	8e-L 8ee-	4.b-	.
.	8d 8dd	.	.
8B-	8e-J 8ee-	.	.
8e-L 8b-	8fL 8ff	4.ee-	.
8B-	8g 8gg	.	.
8BBB-J 8BB-	8e-J 8ee-	.	.
=214	=214	=214	=214
4G-X 4e-	8dL 8dd	4.an	.
.	8c 8cc	.	.
8G- 8e-	8BnJ 8bn	.	.
4An 4g-X	8cL 8cc	8a	.
.	8.fJ 8.ff	8cc	.
8BBB- 8BB-	.	8rc	.
.	16ee-	.	.
*	*v	*v	*
=215	=215	=215
8FL	4.ee-	.
8e-	.	.
8A-J	.	.
8e-L	8gL	.
8a-J	8dd	.
8r	8ccJ	.
=216	=216	=216
4r	8b-L	.
.	8c	.
8r	8a-J	.
4r	8gL	.
.	8f	.
8BBB- 8BB-	8ccJ	.
=217	=217	=217
8FL	4.aa-	.
8e-	.	.
8A-J	.	.
8e-L	8a-L	.
8ccJ	8gg	.
8r	8ffJ	.
=218	=218	=218
4r	8ee-L	.
.	8f	.
8r	8ccJ	.
4r	8b-L	.
.	8a-	.
8BBB- 8BB-	8ee-J	.
=219	=219	=219
8FL	4.ccc	.
8e-	.	.
8A-J	.	.
8a-L	8ccL	.
8ee-J	8bb-	.
8r	8aa-J	.
=220	=220	=220
2.r	8ggL	.
.	8a-	.
.	8ffJ	.
.	8ee-L	.
.	8dd	.
.	8ccJ	.
=221	=221	=221
2.r	8b-L	.
.	8c	.
.	8a-J	.
.	8gL	.
.	8f	.
.	8gJ	.
=222	=222	=222
*	*^	*
4r	8b-L	4rc	.
.	8c	.	.
8r	8a-J	8rc	.
4.BB- 4.B-	8gL	4.A- 4.d	.
.	8f	.	.
.	8gJ	.	.
*	*v	*v	*
=223	=223	=223
*^	*	*
8rc	8EE-L 8E-	4.G 4.e-	.
[4B-	8D	.	.
.	8CJ	.	.
4.B-]	4.BB-	4f	.
.	.	8G 8e- 8g	.
=224	=224	=224	=224
8rc	8EE-L 8E-	4.f	.
[4B-	8D	.	.
.	8CJ	.	.
4.B-]	4.BB-	4G 4e- 4g	.
.	.	8b-	.
*v	*v	*	*
=225	=225	=225
16EE-LL	8A-L 8f	.
16BB-	.	.
16A-	8e-	.
16F	.	.
16e-	8fJ	.
16a-JJ	.	.
8A-	8cc	.
8r	8ddL	.
8r	8ee-J	.
=226	=226	=226
2.r	40%3ggL	.
.	40%3ff	.
.	40%3cc	.
.	40%3f	.
.	40%3gJ	.
.	4b-	.
.	8a-	.
=227	=227	=227
*^	*^	*
8rc	8EE-L 8E-	4.A- 4.f	4rc	.
[4B-	8D	.	.	.
.	8CJ	.	8rc	.
4.B-]	4.BB-	4g	4.d	.
.	.	8A- 8a-	.	.
=228	=228	=228	=228	=228
8rc	8EE-L 8E-	4g	4rc	.
[4B-	8D	.	.	.
.	8CJ	[8A- [8e-	8rc	.
4.B-]	4.BB-	8A-L] 8e-]	8rc	.
.	.	8f	4A- 4d	.
.	.	8gJ	.	.
*v	*v	*	*	*
=229	=229	=229	=229
16EEE-LL 16EE-	8b-L	4.G 4.e-	.
16BB-	.	.	.
16G	8an	.	.
16e-	.	.	.
16B-	8b-J	.	.
16GJJ	.	.	.
8b-	8ee-	4.rc	.
8r	8ff#XL	.	.
8r	8ggJ	.	.
=230	=230	=230	=230
*^	*	*	*
4rc	4rEE	40%3cccL	4rc	.
.	.	40%3bb-	.	.
.	.	40%3ee-	.	.
.	.	40%3g	.	.
8rc	8rEE	.	8rc	.
.	.	40%3a-J	.	.
4G	4.BB-	8b-L	4.d	.
.	.	8g	.	.
8A-	.	8fJ	.	.
*	*	*v	*v	*
=231	=231	=231	=231
8rc	8EE-L 8E-	4.G 4.e-	.
[4B-	8D	.	.
.	8CJ	.	.
4.B-]	4.BB-	4f	.
.	.	8G 8e- 8g	.
=232	=232	=232	=232
8rc	8EE-L 8E-	4.f	.
[4B-	8D	.	.
.	24CL	.	.
.	24D	.	.
.	24CJJ	.	.
4.B-]	4.BB-	4G 4e- 4g	.
.	.	8b-	.
*v	*v	*	*
=233	=233	=233
16EEE-LL 16EE-	8fL	.
16BB-	.	.
16A-	8e-	.
16F	.	.
16e-	8fJ	.
16a-JJ	.	.
8A-	32%3cc	.
.	32%3ee-L	.
8r	.	.
.	32%3ff	.
8r	.	.
.	32%3aa-J	.
=234	=234	=234
2.r	56%3dddLL	.
.	56%3ccc	.
.	56%3aa-	.
.	56%3ff	.
.	56%3cc	.
.	56%3f	.
.	56%3gJJ	.
.	4b-	.
.	8a-	.
=235	=235	=235
*^	*^	*
8rc	8EE-L 8E-	4.A- 4.f	4rc	.
[4B-	24DL	.	.	.
.	24E-	.	.	.
.	24D	.	.	.
.	24C	.	8rc	.
.	24D	.	.	.
.	24CJJ	.	.	.
4.B-]	24BB-LL	8gL	8rc	.
.	24C	.	.	.
.	24BB-	.	.	.
.	24C	8b-	4A- 4d	.
.	24BB-	.	.	.
.	24C	.	.	.
.	24BB-	8a-J	.	.
.	24C	.	.	.
.	24BB-JJ	.	.	.
=236	=236	=236	=236	=236
8rc	8EE-L 8E-	8gL	8rc	.
[4B-	24DL	8f	4A-	.
.	24E-	.	.	.
.	24D	.	.	.
.	24C	8e-J	.	.
.	24D	.	.	.
.	24CJJ	.	.	.
4.B-]	24BB-LL	4f	4.A- 4.d	.
.	24C	.	.	.
.	24BB-	.	.	.
.	24C	.	.	.
.	24BB-	.	.	.
.	24C	.	.	.
.	24BB-	8g	.	.
.	24C	.	.	.
.	24BB-JJ	.	.	.
*v	*v	*	*	*
*	*v	*v	*
=237	=237	=237
*M3/4	*M3/4	*
*	*^	*
8EE-L	4G 4e- 4b-	4rc	.
8BB-J	.	.	.
8GL	12raa	12rc	.
.	12b-L 12dd	6b-	.
8B-J	.	.	.
.	12e-J 12ee-	.	.
8e-L	12raa	12rc	.
.	12ff#XL	6ee-	.
8B-J	.	.	.
.	12gJ 12gg	.	.
=238	=238	=238	=238
6G 6b-	12raa	12rc	.
.	12ee-L 12aan	6ee-	.
12r	12b-J 12bb-	.	.
12r	4bb- 4bbb-	4rc	.
12dL	.	.	.
12cJ	.	.	.
12B-L	4raa	4rc	.
12A-	.	.	.
12GJ	.	.	.
=239	=239	=239	=239
*^	*	*	*
2.F	12FL	12raa	4rc	.
.	12BB-	12A-L 12c	.	.
.	12EE-J	12B-J 12d	.	.
.	8B-L	12raa	12rc	.
.	.	12dL 12g	6d	.
.	8BB-J	.	.	.
.	.	12a-J	.	.
.	8B-L	12raa	12rc	.
.	.	12b-L	6a-	.
.	8BB-J	.	.	.
.	.	12dJ 12cc	.	.
=240	=240	=240	=240	=240
4G	12GL	12raa	12rc	.
.	12BB-	12gL 12b-	6g	.
.	12EE-J	12dJ 12cc	.	.
4A-	12A-L	12raa	12rc	.
.	12BB-	12fL 12b-	6f	.
.	12EE-J	12dJ 12cc	.	.
4c	12cL	12raa	12rc	.
.	12BB-	12fL 12a-	6f	.
.	12EE-J	12dJ 12b-	.	.
=241	=241	=241	=241	=241
4B-	12B-L	12raa	12rc	.
.	12BB-	12gL 12b-	6g	.
.	12EE-J	12e-J 12cc	.	.
4A-	12A-L	12raa	12rc	.
.	12BB-	12fL 12cc	6f	.
.	12EE-J	12dJ 12b- 12dd	.	.
4G	12GL	12raa	4rc	.
.	12BB-	12e-L 12cc 12ee-	.	.
.	12EE-J	12cJ	.	.
*	*	*v	*v	*
=242	=242	=242	=242
2.F	12FL	12dL	.
.	12BB-	12dd 12ff	.
.	12EE-J	12B-J	.
.	12B-L	12r	.
.	12BB-	12ddL 12ff 12bb-	.
.	12B-J	12b-J	.
.	12BB-L	12r	.
.	12B-	12b-L 12dd 12ff	.
.	12BB-J	12fJ	.
=243	=243	=243	=243
4F	12BB-L	12r	.
.	12EE-	12A-L 12c	.
.	12BB-J	12b-J	.
4En	12EL	12r	.
.	12BB-	12A-L 12d-X	.
.	12EE-J	12b-J	.
4F	12FL	12r	.
.	12BB-	12A-L 12dn	.
.	12EE-J	12b-J	.
=244	=244	=244	=244
4G	12GL	12r	.
.	12BB-	12cL 12e-	.
.	12EE-J	12b-J	.
4A-	12A-L	12r	.
.	12BB-	12dL 12f	.
.	12EE-J	12b-J	.
4c	12cL	12r	.
.	12BB-	12fL 12a-	.
.	12EE-J	12b-J	.
=245	=245	=245	=245
4B-	12B-L	12r	.
.	12BB-	12e-L 12g	.
.	12EE-J	12ccJ	.
4A-	12A-L	12r	.
.	12BB-	12dL 12f	.
.	12EE-J	12ddJ	.
4G	12GL	12r	.
.	12BB-	12cL 12e-	.
.	12EE-J	12ee-J	.
=246	=246	=246	=246
4F	12FL	12r	.
.	12BB-	12B-L 12d	.
.	12EE-J	12ffJ	.
12rc	12fL	12r	.
6B-	12B-	12a-L 12dd	.
.	12E-J	12bb-J	.
12rc	12fL	12r	.
6B-	12B-	12a-L 12dd	.
.	12E-J	12ffJ	.
=247	=247	=247	=247
*	*	*^	*
4E-	8E-L	12raa	12rc	.
.	.	12GL 12d	6G	.
.	8EE-J	.	.	.
.	.	12e-J	.	.
4D	8DL	12g	12rc	.
.	.	12GL 12d	6G	.
.	8B-J	.	.	.
.	.	12e-J	.	.
4C	8CL	12b-	4rc	.
.	.	12raa	.	.
.	8EE-J	.	.	.
.	.	12raa	.	.
=248	=248	=248	=248	=248
4BB-	8BB-L	12raa	12rc	.
.	.	12A-XL 12an	6A-	.
.	8EE-J	.	.	.
.	.	12dJ 12b-	.	.
4rc	12BB-L	12cc	4rc	.
.	12G	12dL 12b-	.	.
.	12A-J	12ccJ	.	.
4rc	8A-L 8d	6gg	4b-	.
.	8BB-J	.	.	.
.	.	12ff	.	.
=249	=249	=249	=249	=249
4E-	8B-L	12raa	12rc	.
.	.	12gL 12dd	6g	.
.	8EE-J	.	.	.
.	.	12ee-J	.	.
4D	8e-L	12gg	4rc	.
.	.	12gL 12dd	.	.
.	8GJ	.	.	.
.	.	12ee-J	.	.
4C	8B-L	12bb-	4rc	.
.	.	12raa	.	.
.	8EE-J	.	.	.
.	.	12raa	.	.
=250	=250	=250	=250	=250
4BB-	8A-L 8d	12raa	12rc	.
.	.	12a-XL 12aan	6a-	.
.	8EE-J	.	.	.
.	.	12bb-J	.	.
4rc	12BB-L	12ccc	4rc	.
.	12A-	12ddL 12bb-	.	.
.	12dJ	12cccJ	.	.
4rc	8A-L 8d 8b-	6ggg	4bb-	.
.	8BB-J	.	.	.
.	.	12fff	.	.
=251	=251	=251	=251	=251
12EE-L	4EE-	12raa	12rc	.
12E-	.	12B-L 12f#X	6B-	.
12BB-J	.	12GJ 12e- 12g	.	.
12GGL	4GG	12raa	12rc	.
12G	.	12e-L 12an	6e-	.
12E-J	.	12B-J 12g 12b-	.	.
12BB-L	4BB-	12raa	12rc	.
12B-	.	12gL 12dd	6g	.
12GJ	.	12e-J 12b- 12ee-	.	.
=252	=252	=252	=252	=252
12E-L	4E-	12raa	12rc	.
12e-	.	12b-L 12ff#X	6b-	.
12B-J	.	12gJ 12ee- 12gg	.	.
12GL	4G	12raa	12rc	.
12g	.	12ee-L 12aan	6ee-	.
12e-J	.	12b-J 12gg 12bb-	.	.
12B-L	4B-	12raa	12rc	.
12b-	.	12ggL 12ddd	6gg	.
12gJ	.	12ee-J 12bb- 12eee-	.	.
*clefG2	*	*	*	*
=253	=253	=253	=253	=253
12e-L	2.e-	12raa	12rc	.
12ee-	.	12bb-L 12fff#X	6bb-	.
12b-J	.	12ggJ 12eee- 12ggg	.	.
12e-L	.	12raa	12rc	.
12ee-	.	12bb-L 12fff#	6bb-	.
12b-J	.	12ggJ 12eee- 12ggg	.	.
12e-L	.	12raa	12rc	.
12ee-	.	12bb-L 12fff#	6bb-	.
12b-J	.	12ggJ 12eee- 12ggg	.	.
=254	=254	=254	=254	=254
12e-L	4e-	12raa	12rc	.
12ee-	.	12bb-L 12fff#X	6bb-	.
12b-J	.	12ggJ 12eee- 12ggg	.	.
4raa	4rc	4raa	4rc	.
4raa	4rc	4raa	4rc	.
*clefF4	*	*	*	*
=255	=255	=255	=255	=255
12EE-L	4EE-	12raa	12rc	.
12E-	.	12d-XL 12f#X	6d-	.
12BB-J	.	12GJ 12g	.	.
12GGL	4GG	12raa	12rc	.
12G	.	12e-L 12an	6e-	.
12E-J	.	12d-J 12b-	.	.
12BB-L	4BB-	12raa	12rc	.
12d-X	.	12b-L 12ddn	6b-	.
12GJ	.	12e-J 12ee-	.	.
=256	=256	=256	=256	=256
12E-L	4E-	12raa	12rc	.
12e-	.	12dd-XL 12ff#X	6dd-	.
12B-J	.	12gJ 12gg	.	.
12GL	4G	12raa	12rc	.
12g	.	12ee-L 12aan	6ee-	.
12e-J	.	12dd-J 12bb-	.	.
*clefG2	*	*	*	*
12B-L	4B-	12raa	12rc	.
12dd-X	.	12bb-L 12ddd	6bb-	.
12gJ	.	12ee-J 12eee-	.	.
=257	=257	=257	=257	=257
12e-L	4e-	12raa	12rc	.
12ee-	.	12ddd-XL 12fff#X	6ddd-	.
12b-J	.	12ggJ 12ggg	.	.
12e-L	4e-	12raa	12rc	.
12ee-	.	12ddd-L 12fff#	6ddd-	.
12b-J	.	12ggJ 12ggg	.	.
12e-L	4e-	12raa	12rc	.
12ee-	.	12ddd-L 12fff#	6ddd-	.
12b-J	.	12ggJ 12ggg	.	.
=258	=258	=258	=258	=258
12e-L	4e-	12raa	12rc	.
12ee-	.	12ddd-XL 12fff#X	6ddd-	.
12b-J	.	12ggJ 12ggg	.	.
4raa	4rc	4raa	4rc	.
4raa	4rc	4raa	4rc	.
*clefF4	*	*clefF4	*	*
*v	*v	*	*	*
*	*v	*v	*
=259||	=259||	=259||
*k[]	*k[]	*
*^	*^	*
8GG#XL	4GGG#X 4GG#	12rc	12rEE	.
.	.	12D#XL 12A#X	6D#	.
8DD#XJ	.	.	.	.
.	.	12BBJ 12G#X 12B	.	.
8BBL	4BBB 4BB	12rc	12rEE	.
.	.	12G#L 12c##X	6G#	.
8GG#J	.	.	.	.
.	.	12D#J 12B 12d#X	.	.
8D#XL	4DD#X 4D#	12rc	12rEE	.
.	.	12A#L	6G#	.
8BBJ	.	.	.	.
.	.	12BJ	.	.
*	*	*v	*v	*
*	*	*clefG2	*
=260	=260	=260	=260
*	*	*^	*
*	*	*	*^	*
8EL	8.EEL 8.E	4G#X 4g#X	12rc	12r	.
.	.	.	12G#L 12c#X	6c#/	.
8BBJ	.	.	.	.	.
.	.	.	12C##XJ 12c##X	.	.
.	16BBBJk 16BB	.	.	.	.
8BBL	2BBB 2BB	4B 4b	12rc	4r	.
.	.	.	12d#XL 12f##X	.	.
8D#XJ	.	.	.	.	.
.	.	.	12G#J 12g#	.	.
8G#XL	.	4d#X 4dd#X	12rc	12r	.
.	.	.	12d#L 12f##	6f##/	.
8D#J	.	.	.	.	.
.	.	.	12G#J 12g#	.	.
*	*	*v	*v	*v	*
=261	=261	=261	=261
12GGG#XL 12GG#X	4rEE	8.eL 8.ee	.
12EE 12E	.	.	.
12BBJ 12B	.	.	.
.	.	16BJk 16b	.
12rc	12rEE	4B 4b	.
12EL 12A#X	6E	.	.
12BBJ 12B	.	.	.
4EEE 4EE	4rEE	12g#XL 12ee	.
.	.	12e	.
.	.	12G#XJ	.
*v	*v	*	*
*	*clefF4	*
=262	=262	=262
4FFF#X 4FF#X	12AL 12e	.
.	12E	.
.	12AAJ	.
4GGG 4GG	12BB-XL 12E	.
.	12EE	.
.	12BB-J 12E	.
4GGG#X 4GG#X	12EEL	.
.	12BBn 12E	.
.	12EEJ	.
=263	=263	=263
*^	*^	*
8AAL	4AAA 4AA	12rc	12rEE	.
.	.	12EL 12B	6E	.
8EEJ	.	.	.	.
.	.	12CJ 12A 12c	.	.
8CL	4CC 4C	12rc	12rEE	.
.	.	12AL 12d#X	6A	.
8AAJ	.	.	.	.
.	.	12EJ 12c 12e	.	.
8EL	4EE 4E	12rc	12rEE	.
.	.	12BL	6A	.
8CJ	.	.	.	.
.	.	12cJ	.	.
*	*	*v	*v	*
*	*	*clefG2	*
=264	=264	=264	=264
*	*	*^	*
*	*	*	*^	*
8FL	8.FFL 8.F	4A 4a	12rc	12r	.
.	.	.	12AL 12d	6d/	.
8CJ	.	.	.	.	.
.	.	.	12D#XJ 12d#X	.	.
.	16CCJk 16C	.	.	.	.
8CL	2CC 2C	4c 4cc	12rc	12r	.
.	.	.	12eL 12g#X	6g#/	.
8EJ	.	.	.	.	.
.	.	.	12AJ 12a	.	.
8AL	.	4e 4ee	12rc	12r	.
.	.	.	12eL 12g#	6g#/	.
8EJ	.	.	.	.	.
.	.	.	12AJ 12a	.	.
*	*	*v	*v	*v	*
=265	=265	=265	=265
12AAAL 12AA	4rEE	8.fL 8.ff	.
12FF 12F	.	.	.
12CJ 12c	.	.	.
.	.	16cJk 16cc	.
12rc	12rEE	4c 4cc	.
12FL 12B	6F	.	.
12CJ 12c	.	.	.
4FFF 4FF	4rEE	12aL 12ff	.
.	.	12f	.
.	.	12AJ	.
*v	*v	*	*
*	*clefF4	*
=266	=266	=266
4GGG 4GG	12B-XL 12f	.
.	12F	.
.	12BB-XJ	.
4AAA-X 4AA-X	12C-XL 12F	.
.	12FF	.
.	12C-J 12F	.
4AAAn 4AAn	12FFL	.
.	12Cn 12F	.
.	12FFJ	.
=267||	=267||	=267||
*k[b-e-a-d-g-c-]	*k[b-e-a-d-g-c-]	*
*^	*^	*
8BB-L	4BBB- 4BB-	12rc	12rEE	.
.	.	12FL 12cn	6F	.
8FFJ	.	.	.	.
.	.	12D-J 12B- 12d-	.	.
8D-L	4DD- 4D-	12rc	12rEE	.
.	.	12B-L 12en	6B-	.
8BB-J	.	.	.	.
.	.	12FJ 12d- 12f	.	.
*	*	*clefG2	*	*
8FL	4FF 4F	12raa	12rc	.
.	.	12d-L 12an	6d-	.
8D-J	.	.	.	.
.	.	12B-J 12f 12b-	.	.
=268	=268	=268	=268	=268
8G-L	8.GG-L 8.G-	12raa	12rc	.
.	.	12f-XL 12b--	6f-	.
8D-J	.	.	.	.
.	.	12B-XJ 12b-X	.	.
.	16GGG-Jk 16GG-	.	.	.
4rc	4GGG- 4GG-	12raa	12rc	.
.	.	12B-L 12e-	6B-	.
.	.	12F-XJ 12f-	.	.
8g-L	4G- 4g-	12raa	12rc	.
.	.	12b-L 12ee-	6b-	.
8d-J	.	.	.	.
.	.	12f-J 12ff-X	.	.
*	*	*clefF4	*	*
=269	=269	=269	=269	=269
8C-L	4CC- 4C-	12rc	12rEE	.
.	.	12G-L 12dn	6G-	.
8GG-J	.	.	.	.
.	.	12E-J 12c- 12e-	.	.
8E-L	4EE- 4E-	12rc	12rEE	.
.	.	12c-L 12f	6c-	.
8C-J	.	.	.	.
.	.	12G-J 12e- 12g-	.	.
*	*	*clefG2	*	*
8G-L	4GG- 4G-	12raa	12rc	.
.	.	12e-L 12b-	6e-	.
8E-J	.	.	.	.
.	.	12c-J 12g- 12cc-	.	.
=270	=270	=270	=270	=270
8GnL	8.GGnL 8.G	12raa	12rc	.
.	.	12e-L 12b-	6e-	.
8E-J	.	.	.	.
.	.	12c-J 12gn 12cc-	.	.
.	16CC-Jk 16C-	.	.	.
8C-L	4CC- 4C-	12raa	12rc	.
.	.	12c-L 12g-X	6c-	.
8GGJ	.	.	.	.
.	.	12GnJ 12e- 12gn	.	.
8gnL	4G 4g	12raa	12rc	.
.	.	12bb-L	6ee-	.
8e-J	.	.	.	.
.	.	12cc-J 12ggn 12ccc-	.	.
=271	=271	=271	=271	=271
8C-L	4CC- 4C-	12raa	12rc	.
.	.	12GnL 12d-	6G	.
8GGnJ	.	.	.	.
.	.	12E-J 12c- 12e-	.	.
8E-L	4EE- 4E-	12raa	12rc	.
.	.	12c-L 12g-X	6c-	.
8C-J	.	.	.	.
.	.	12GJ 12e- 12gn	.	.
8GnL	4GG 4G	12raa	12rc	.
.	.	12e-L 12b-	6e-	.
8E-J	.	.	.	.
.	.	12c-J 12g 12cc-	.	.
=272	=272	=272	=272	=272
8A-L	8.AA-L 8.A-	12raa	12rc	.
.	.	12e-L 12b-	6e-	.
8E-J	.	.	.	.
.	.	12c-J 12a- 12cc-	.	.
.	16CC-Jk 16C-	.	.	.
8C-L	4CC- 4C-	12raa	12rc	.
.	.	12e-L 12gn	6e-	.
8E-J	.	.	.	.
.	.	12A-J 12a-	.	.
8a-L	4A- 4a-	12raa	12rc	.
.	.	12ee-L 12bb-	6ee-	.
8e-J	.	.	.	.
.	.	12cc-J 12aa- 12ccc-	.	.
=273	=273	=273	=273	=273
8AnL	8.AAnL 8.A	12raa	12rc	.
.	.	12e-L 12b-	6e-	.
8G-J	.	.	.	.
.	.	12c-J 12g- 12cc-	.	.
.	16CC-Jk 16C-	.	.	.
8C-L	4CC- 4C-	12raa	12rc	.
.	.	12e-L 12a-X	6e-	.
8G-J	.	.	.	.
.	.	12AnJ 12an	.	.
4An 4c- 4e- 4an	4rEE	12ddnL	4rc	.
.	.	12ee-	.	.
.	.	12ffJ	.	.
*v	*v	*	*	*
*	*v	*v	*
=274	=274	=274
4An 4c- 4e- 4an	12gg-L	.
.	12bb-	.
.	12ccc-J	.
4r	12dddnL	.
.	12eee-	.
.	12fffJ	.
4r	12ggg-L	.
.	12ggg-	.
.	12gggg-J	.
=275	=275	=275
4BBB- 4BB-	2.gg- 2.eee- 2.ggg-	.
12DnL	.	.
12E-	.	.
12FJ	.	.
12G-L	.	.
12B-	.	.
12c-J	.	.
*clefG2	*	*
=276	=276	=276
12dnL	2gg- 2eee- 2ggg-	.
12e-	.	.
12fJ	.	.
12g-L	.	.
12b-	.	.
12cc-J	.	.
12ddnL	4gg- 4eee- 4ggg-	.
12ee-	.	.
12ffJ	.	.
*clefF4	*	*
=277	=277	=277
*	*^	*
4r	4eee- 4ggg-	4gg-	.
4r	4raa	12g-L	.
.	.	12b-	.
.	.	12cc-J	.
4E- 4c- 4g-	4raa	12ddnL	.
.	.	12ee-	.
.	.	12ffJ	.
*	*v	*v	*
=278	=278	=278
4E- 4c- 4g-	12gg-L	.
.	12bb-	.
.	12ccc-J	.
4r	12dddnL	.
.	12eee-	.
.	12fffJ	.
4r	12ggg-L	.
.	12ggg-	.
.	12gggg-J	.
=279	=279	=279
4BBB- 4BB-	2.bb- 2.ggg- 2.bbb-	.
12DnL	.	.
12E-	.	.
12FJ	.	.
12G-L	.	.
12B-	.	.
12c-J	.	.
*clefG2	*	*
=280	=280	=280
12dnL	2bb- 2ggg- 2bbb-	.
12e-	.	.
12fJ	.	.
12g-L	.	.
12b-	.	.
12cc-J	.	.
12ddnL	4bb- 4ggg- 4bbb-	.
12ee-	.	.
12ffJ	.	.
*clefF4	*	*
=281	=281	=281
*	*^	*
4r	4bb- 4ggg- 4bbb-	4gg-	.
4r	4raa	12g-L	.
.	.	12b-	.
.	.	12cc-J	.
4BBB- 4BB-	4raa	12ddnL	.
.	.	12ee-	.
.	.	12ffJ	.
*	*v	*v	*
=282	=282	=282
*^	*	*
2g-	4A- 4B- 4dn	12gg-L	.
.	.	12aa-	.
.	.	12aanJ	.
.	4BBB- 4BB-	12bb-L	.
.	.	12ccc-	.
.	.	12ddd-J	.
8.f	8.A- 8.B- 8.d	12dddnL	.
.	.	12bb-	.
.	.	24bbb-Jk	.
16rc	16rEE	.	.
.	.	24r	.
*v	*v	*	*
=283	=283	=283
*	*^	*
12E-L	4e-	2.B-	.
12F	.	.	.
12G-J	.	.	.
12A-L	4dn	.	.
12G-	.	.	.
12FJ	.	.	.
12E-L	4e-	.	.
12D-	.	.	.
12C-J	.	.	.
=284	=284	=284	=284
12BB-L	4F 4f	2.e-	.
12C-	.	.	.
12D-J	.	.	.
12E-L	4G- 4g-	.	.
12D-	.	.	.
12C-J	.	.	.
12BB-L	4B- 4b-	.	.
12AA-	.	.	.
12GG-J	.	.	.
*	*v	*v	*
=285	=285	=285
12FFL	2.B- 2.e- 2.b-	.
12GG-	.	.
12AA-J	.	.
12BB-L	.	.
12AA-	.	.
12GG-J	.	.
12FFL	.	.
12EE-	.	.
12FFJ	.	.
=286	=286	=286
*	*^	*
8.EE-L 8.E-	12raa	12rc	.
.	12fL	6e-	.
.	12G-J 12g-	.	.
16BBB-Jk 16BB-	.	.	.
4BBB- 4BB-	12raa	12rc	.
.	12b-L 12ff	6b-	.
.	12g-J 12ee- 12gg-	.	.
4G- 4e-	12raa	12rc	.
.	12b-L 12ddn	6b-	.
.	12e-J 12ee-	.	.
=287	=287	=287	=287
12E-L	4e-	2.B-	.
12F	.	.	.
12G-J	.	.	.
12A-L	4dn	.	.
12G-	.	.	.
12FJ	.	.	.
12E-L	4e-	.	.
12D-	.	.	.
12C-J	.	.	.
=288	=288	=288	=288
12BB-L	4F 4f	2.e-	.
12C-	.	.	.
12D-J	.	.	.
12E-L	4G- 4g-	.	.
12D-	.	.	.
12C-J	.	.	.
12BB-L	4B- 4b-	.	.
12AA-	.	.	.
12GG-J	.	.	.
*	*v	*v	*
=289	=289	=289
12FFL	2.B- 2.e- 2.b-	.
12GG-	.	.
12AA-J	.	.
12BB-L	.	.
12AA-	.	.
12GG-J	.	.
12FFL	.	.
12EE-	.	.
12FFJ	.	.
=290	=290	=290
*	*^	*
8.EE-L 8.E-	12raa	12rc	.
.	12fL	6e-	.
.	12G-J 12g-	.	.
16BBB-Jk 16BB-	.	.	.
4BBB- 4BB-	12raa	12rc	.
.	12b-L 12ff	6b-	.
.	12g-J 12ee- 12gg-	.	.
4G- 4e-	12raa	12rc	.
.	12b-L 12ddn	6b-	.
.	12e-J 12ee-	.	.
=291	=291	=291	=291
*^	*	*	*
4B-	8B-L	12raa	12rc	.
.	.	12b-L 12ddn	6b-	.
.	8G-J	.	.	.
.	.	12e-J 12ee-	.	.
4c-	8c-L	12raa	12rc	.
.	.	12anL 12dd	6a	.
.	8G-J	.	.	.
.	.	12e-J 12ee-	.	.
4B-	8B-L	12raa	12rc	.
.	.	12b-L 12dd	6b-	.
.	8G-J	.	.	.
.	.	12e-J 12ee-	.	.
*v	*v	*	*	*
=292	=292	=292	=292
8.EE-L 8.E-	12raa	12rc	.
.	12fL	6e-	.
.	12G-J 12g-	.	.
16BBB-Jk 16BB-	.	.	.
4BBB- 4BB-	12raa	12rc	.
.	12b-L 12ff	6b-	.
.	12g-J 12ee- 12gg-	.	.
4G- 4e-	12raa	12rc	.
.	12b-L 12ddn	6b-	.
.	12e-J 12ee-	.	.
=293	=293	=293	=293
*^	*	*	*
4B-	8B-L	12raa	12rc	.
.	.	12b-L 12ddn	6b-	.
.	8G-J	.	.	.
.	.	12e-J 12ee-	.	.
4c-	8c-L	12raa	12rc	.
.	.	12anL 12dd	6a	.
.	8G-J	.	.	.
.	.	12e-J 12ee-	.	.
4B-	8B-L	12raa	12rc	.
.	.	12b-L 12dd	6b-	.
.	8G-J	.	.	.
.	.	12e-J 12ee-	.	.
=294	=294	=294	=294	=294
4B-	8B-L	12raa	12rc	.
.	.	12b-L 12ddn	6b-	.
.	8G-J	.	.	.
.	.	12e-J 12ee-	.	.
4c-	8c-L	12raa	12rc	.
.	.	12anL 12dd	6a	.
.	8G-J	.	.	.
.	.	12e-J 12ee-	.	.
4B-	8B-L	12raa	12rc	.
.	.	12b-L 12dd	6b-	.
.	8G-J	.	.	.
.	.	12e-J 12ee-	.	.
=295	=295	=295	=295	=295
8E-L	4EE- 4E-	12raa	12rc	.
.	.	12B-L 12f	6B-	.
8BB-J	.	.	.	.
.	.	12G-J 12e- 12g-	.	.
8G-L	4GG- 4G-	12raa	12rc	.
.	.	12e-L 12an	6e-	.
8E-J	.	.	.	.
.	.	12B-J 12g- 12b-	.	.
8B-L	4BB- 4B-	12raa	12rc	.
.	.	12g-L 12ddn	6g-	.
8G-J	.	.	.	.
.	.	12e-J 12b- 12ee-	.	.
=296	=296	=296	=296	=296
8e-L	4E- 4e-	12raa	12rc	.
.	.	12b-L 12ff	6b-	.
8B-J	.	.	.	.
.	.	12g-J 12ee- 12gg-	.	.
*clefG2	*	*	*	*
8g-L	4G- 4g-	12raa	12rc	.
.	.	12ee-L 12aan	6ee-	.
8e-J	.	.	.	.
.	.	12b-J 12gg- 12bb-	.	.
8b-L	4B- 4b-	12raa	12rc	.
.	.	12gg-L 12dddn	6gg-	.
8g-J	.	.	.	.
.	.	12ee-J 12bb- 12eee-	.	.
=297	=297	=297	=297	=297
8ee-L	4e- 4ee-	12raa	12rc	.
.	.	12aanL 12fff	6aa	.
8cc-J	.	.	.	.
.	.	12gg-J 12eee- 12ggg-	.	.
8cc-L	4c- 4cc-	12raa	12rc	.
.	.	12gg-L 12dddn	6gg-	.
8g-J	.	.	.	.
.	.	12ee-J 12aa 12eee-	.	.
8g-L	4G- 4g-	12raa	12rc	.
.	.	12ee-L 12aa-X	6ee-	.
8e-J	.	.	.	.
.	.	12anJ 12gg- 12aan	.	.
=298	=298	=298	=298	=298
8b-L	8.B-L 8.b-	12raa	12rc	.
.	.	12gg-L 12dddn	6gg-	.
8g-J	.	.	.	.
.	.	12ee-J 12bb- 12eee-	.	.
.	16G-Jk 16g-	.	.	.
8g-L	4G- 4g-	12raa	12rc	.
.	.	12ee-L 12aan	6ee-	.
8e-J	.	.	.	.
.	.	12b-J 12gg- 12bb-	.	.
*clefF4	*	*	*	*
8e-L	4E- 4e-	12raa	12rc	.
.	.	12b-L 12ff	6b-	.
8B-J	.	.	.	.
.	.	12g-J 12ee- 12gg-	.	.
=299	=299	=299	=299	=299
8e-L	4E- 4e-	12raa	12rc	.
.	.	12anL 12ff	6a	.
8c-J	.	.	.	.
.	.	12g-J 12ee- 12gg-	.	.
8c-L	4C- 4c-	12raa	12rc	.
.	.	12g-L 12ddn	6g-	.
8G-J	.	.	.	.
.	.	12e-J 12an 12ee-	.	.
8G-L	4GG- 4G-	12raa	12rc	.
.	.	12e-L 12a-X	6e-	.
8E-J	.	.	.	.
.	.	12AnJ 12g- 12an	.	.
=300	=300	=300	=300	=300
8B-L	8.BB-L 8.B-	12raa	12rc	.
.	.	12g-L 12ddn	6g-	.
8G-J	.	.	.	.
.	.	12e-J 12b- 12ee-	.	.
.	16GG-Jk 16G-	.	.	.
8G-L	4GG- 4G-	12raa	12rc	.
.	.	12e-L 12an	6e-	.
8E-J	.	.	.	.
.	.	12B-J 12g- 12b-	.	.
8E-L	4EE- 4E-	12raa	12rc	.
.	.	12B-L 12f	6B-	.
8BB-J	.	.	.	.
.	.	12G-J 12e- 12g-	.	.
=301	=301	=301	=301	=301
8E-L	8.EE-L 8.E-	12raa	12rc	.
.	.	12AnL 12f	6A	.
8C-J	.	.	.	.
.	.	12G-J 12e- 12g-	.	.
.	16CC-Jk 16C-	.	.	.
8C-L	2CC- 2C-	12raa	12rc	.
.	.	12G-L 12dn	6G-	.
8GG-J	.	.	.	.
.	.	12E-J 12An 12e-	.	.
8C-L	.	12raa	12rc	.
.	.	12G-L 12d	6G-	.
8GG-J	.	.	.	.
.	.	12E-J 12A 12e-	.	.
=302	=302	=302	=302	=302
8E-L	8.EE-L 8.E-	12raa	12rc	.
.	.	12AnL 12f	6A	.
8BB-J	.	.	.	.
.	.	12G-J 12e- 12g-	.	.
.	16BBB-Jk 16BB-	.	.	.
*	*	*clefF4	*	*
8BB-L	2BBB- 2BB-	12rc	12rEE	.
.	.	12G-L 12dn	6G-	.
8GG-J	.	.	.	.
.	.	12E-J 12B- 12e-	.	.
8BB-L	.	12rc	12rEE	.
.	.	12G-L 12d	6G-	.
8GG-J	.	.	.	.
.	.	12E-J 12B- 12e-	.	.
=303	=303	=303	=303	=303
8E-L	8.EE-L 8.E-	12rc	12rEE	.
.	.	12c-L 12f	6c-	.
8AA-J	.	.	.	.
.	.	12G-J 12e- 12g-	.	.
.	16AAA-Jk 16AA-	.	.	.
8AA-L	2AAA- 2AA-	12rc	12rEE	.
.	.	12G-L 12dn	6G-	.
8EE-J	.	.	.	.
.	.	12E-J 12c- 12e-	.	.
8AA-L	.	12rc	12rEE	.
.	.	12G-L 12d	6G-	.
8EE-J	.	.	.	.
.	.	12E-J 12c- 12e-	.	.
*	*	*clefG2	*	*
=304	=304	=304	=304	=304
8GG-L	4GGG- 4GG-	12raa	12rc	.
.	.	12B-L 12dn	6B-	.
8EE-J	.	.	.	.
.	.	12E-J 12e-	.	.
8FFL	4FFF 4FF	12raa	12rc	.
.	.	12AnL 12d	6A	.
8EE-J	.	.	.	.
.	.	12E-J 12e-	.	.
8FF-XL	4FFF-X 4FF-	12raa	12rc	.
.	.	12A-XL 12d	6A-	.
8EE-J	.	.	.	.
.	.	12E-J 12e-	.	.
*v	*v	*	*	*
=305	=305	=305	=305
4EEE- 4EE-	12raa	12rc	.
.	12G-L 12dn	6G-	.
.	12E-J 12B- 12e-	.	.
4BBB- 4BB-	12raa	12rc	.
.	12B-L 12f	6B-	.
.	12G-J 12e- 12g-	.	.
4EE- 4E-	12raa	12rc	.
.	12e-L 12an	6e-	.
.	12B-J 12g- 12b-	.	.
=306	=306	=306	=306
4BB- 4B-	12raa	12rc	.
.	12g-L 12ddn	6g-	.
.	12e-J 12b- 12ee-	.	.
4G- 4g-	12raa	12rc	.
.	12b-L 12ff	6b-	.
.	12g-J 12ee- 12gg-	.	.
4F 4f	12raa	12rc	.
.	12ee-L 12aan	6ee-	.
.	12b-J 12ee- 12gg- 12bb-	.	.
*	*v	*v	*
=307	=307	=307
2.E- 2.B- 2.g-	2.ee- 2.bb- 2.eee-	.
=308	=308	=308
2.EE- 2.BB- 2.E-	2.G- 2.B- 2.e- 2.g-	.
=309	=309	=309
2.EE- 2.BB- 2.E-	2.G- 2.B- 2.e- 2.g-	.
==	==	==
*-	*-	*-
!!!system-decoration: {(*)}
!!!ENC: Bryan Jacob Bell
!!!END: November 2021 to April 2022
!!!PED: M.P. Belaieff
